Samples/Looks/luts/fuse_warm_print.cube
# FUSE sample creative LUT, generated for the FUSE samples (MIT, like the rest of FUSE).
# sRGB-encoded display domain, red fastest.
TITLE "FUSE warm print"
LUT_3D_SIZE 17
DOMAIN_MIN 0.0 0.0 0.0
DOMAIN_MAX 1.0 1.0 1.0
0.000000 0.008824 0.027180
0.038317 0.008593 0.026450
0.096055 0.008369 0.025713
0.155711 0.008154 0.024971
0.217287 0.007946 0.024222
0.280782 0.007746 0.023467
0.346199 0.007554 0.022706
0.413537 0.007370 0.021939
0.482799 0.007194 0.021166
0.552892 0.007025 0.020386
0.621197 0.006864 0.019601
0.687601 0.006711 0.018809
0.752101 0.006566 0.018011
0.814697 0.006429 0.017208
0.875389 0.006300 0.016398
0.934174 0.006178 0.015582
0.991052 0.006064 0.014759
0.000000 0.064290 0.024699
0.040014 0.064078 0.023948
0.097843 0.063874 0.023191
0.157591 0.063678 0.022428
0.219261 0.063491 0.021658
0.282853 0.063311 0.020883
0.348369 0.063140 0.020101
0.415808 0.062977 0.019313
0.485173 0.062822 0.018520
0.555270 0.062675 0.017720
0.623548 0.062536 0.016913
0.689921 0.062405 0.016101
0.754389 0.062282 0.015283
0.816951 0.062167 0.014459
0.877606 0.062060 0.013628
0.936353 0.061962 0.012792
0.993190 0.061871 0.011949
0.000000 0.121674 0.022148
0.041821 0.121483 0.021377
0.099744 0.121301 0.020599
0.159588 0.121127 0.019815
0.221357 0.120962 0.019025
0.285049 0.120804 0.018229
0.350667 0.120656 0.017427
0.418212 0.120515 0.016618
0.487683 0.120383 0.015804
0.557777 0.120259 0.014984
0.626023 0.120143 0.014157
0.692363 0.120036 0.013324
0.756796 0.119937 0.012486
0.819320 0.119847 0.011641
0.879934 0.119764 0.010790
0.938639 0.119691 0.009933
0.995432 0.119625 0.009071
0.000000 0.180987 0.019528
0.043739 0.180819 0.018736
0.101759 0.180660 0.017938
0.161703 0.180509 0.017133
0.223573 0.180367 0.016323
0.287370 0.180234 0.015506
0.353094 0.180109 0.014683
0.420747 0.179993 0.013855
0.490330 0.179886 0.013020
0.560413 0.179787 0.012179
0.628624 0.179697 0.011332
0.694926 0.179615 0.010479
0.759319 0.179542 0.009620
0.821802 0.179477 0.008755
0.882373 0.179421 0.007884
0.941031 0.179374 0.007007
0.997776 0.179335 0.006124
0.000000 0.242236 0.016839
0.045767 0.242093 0.016026
0.103888 0.241959 0.015207
0.163936 0.241833 0.014382
0.225912 0.241717 0.013551
0.289817 0.241609 0.012714
0.355651 0.241511 0.011871
0.423416 0.241421 0.011022
0.493113 0.241340 0.010167
0.563177 0.241268 0.009306
0.631349 0.241204 0.008439
0.697610 0.241150 0.007565
0.761960 0.241104 0.006686
0.824397 0.241068 0.005801
0.884920 0.241040 0.004910
0.943529 0.241021 0.004012
1.000000 0.241010 0.003109
0.000000 0.305431 0.014080
0.047906 0.305314 0.013247
0.106132 0.305207 0.012408
0.166287 0.305108 0.011563
0.228373 0.305019 0.010711
0.292389 0.304939 0.009854
0.358337 0.304868 0.008991
0.426218 0.304806 0.008121
0.496033 0.304753 0.007246
0.566068 0.304710 0.006364
0.634198 0.304675 0.005477
0.700415 0.304650 0.004584
0.764718 0.304634 0.003684
0.827105 0.304627 0.002779
0.887577 0.304628 0.001868
0.946132 0.304640 0.000950
1.000000 0.304660 0.000027
0.000000 0.370580 0.011254
0.050156 0.370492 0.010400
0.108491 0.370413 0.009540
0.168758 0.370343 0.008675
0.230956 0.370283 0.007803
0.295087 0.370232 0.006926
0.361153 0.370191 0.006042
0.429154 0.370159 0.005153
0.499090 0.370136 0.004257
0.569087 0.370123 0.003355
0.637171 0.370119 0.002448
0.703339 0.370124 0.001534
0.767591 0.370139 0.000615
0.829926 0.370163 0.000000
0.890343 0.370197 0.000000
0.948840 0.370240 0.000000
1.000000 0.370292 0.000000
0.000000 0.437693 0.008358
0.052519 0.437635 0.007484
0.110966 0.437586 0.006605
0.171347 0.437547 0.005719
0.233662 0.437518 0.004827
0.297913 0.437498 0.003929
0.364099 0.437488 0.003026
0.432223 0.437487 0.002116
0.502284 0.437496 0.001200
0.572233 0.437515 0.000279
0.640267 0.437543 0.000000
0.706382 0.437581 0.000000
0.770580 0.437629 0.000000
0.832858 0.437687 0.000000
0.893216 0.437754 0.000000
0.951653 0.437830 0.000000
1.000000 0.437917 0.000000
0.000000 0.506762 0.005395
0.054993 0.506735 0.004501
0.113557 0.506718 0.003601
0.174056 0.506712 0.002695
0.236492 0.506715 0.001783
0.300865 0.506727 0.000866
0.367177 0.506750 0.000000
0.435428 0.506783 0.000000
0.505608 0.506825 0.000000
0.575506 0.506878 0.000000
0.643485 0.506940 0.000000
0.709545 0.507012 0.000000
0.773684 0.507094 0.000000
0.835902 0.507186 0.000000
0.896197 0.507287 0.000000
0.954569 0.507399 0.000000
1.000000 0.507520 0.000000
0.000834 0.575594 0.002364
0.057581 0.575600 0.001450
0.116264 0.575617 0.000530
0.176886 0.575642 0.000000
0.239446 0.575677 0.000000
0.303946 0.575722 0.000000
0.370386 0.575777 0.000000
0.438768 0.575841 0.000000
0.509061 0.575914 0.000000
0.578904 0.575998 0.000000
0.646825 0.576090 0.000000
0.712825 0.576193 0.000000
0.776903 0.576305 0.000000
0.839056 0.576426 0.000000
0.899285 0.576558 0.000000
0.957589 0.576698 0.000000
1.000000 0.576849 0.000000
0.003413 0.642660 0.000000
0.060281 0.642697 0.000000
0.119089 0.642744 0.000000
0.179836 0.642801 0.000000
0.242524 0.642866 0.000000
0.307154 0.642941 0.000000
0.373727 0.643026 0.000000
0.442244 0.643119 0.000000
0.512643 0.643222 0.000000
0.582427 0.643335 0.000000
0.650287 0.643456 0.000000
0.716224 0.643587 0.000000
0.780235 0.643727 0.000000
0.842321 0.643877 0.000000
0.902480 0.644036 0.000000
0.960711 0.644204 0.000000
1.000000 0.644382 0.000000
0.006102 0.707950 0.000000
0.063096 0.708017 0.000000
0.122030 0.708093 0.000000
0.182907 0.708178 0.000000
0.245727 0.708273 0.000000
0.310491 0.708376 0.000000
0.377200 0.708488 0.000000
0.445855 0.708610 0.000000
0.516354 0.708740 0.000000
0.586075 0.708880 0.000000
0.653870 0.709029 0.000000
0.719739 0.709186 0.000000
0.783681 0.709353 0.000000
0.845695 0.709529 0.000000
0.905780 0.709714 0.000000
0.963935 0.709907 0.000000
1.000000 0.710110 0.000000
0.008902 0.771455 0.000000
0.066024 0.771550 0.000000
0.125090 0.771653 0.000000
0.186101 0.771766 0.000000
0.249056 0.771887 0.000000
0.313958 0.772017 0.000000
0.380807 0.772155 0.000000
0.449604 0.772303 0.000000
0.520193 0.772459 0.000000
0.589847 0.772624 0.000000
0.657573 0.772798 0.000000
0.723371 0.772981 0.000000
0.787240 0.773172 0.000000
0.849179 0.773372 0.000000
0.909186 0.773581 0.000000
0.967261 0.773799 0.000000
1.000000 0.774025 0.000000
0.011812 0.833167 0.000000
0.069068 0.833287 0.000000
0.128269 0.833416 0.000000
0.189416 0.833554 0.000000
0.252511 0.833700 0.000000
0.317555 0.833855 0.000000
0.384547 0.834018 0.000000
0.453490 0.834190 0.000000
0.524159 0.834370 0.000000
0.593743 0.834559 0.000000
0.661396 0.834756 0.000000
0.727120 0.834962 0.000000
0.790911 0.835176 0.000000
0.852770 0.835399 0.000000
0.912696 0.835630 0.000000
0.970688 0.835870 0.000000
1.000000 0.836118 0.000000
0.014835 0.893075 0.000000
0.072227 0.893220 0.000000
0.131566 0.893373 0.000000
0.192855 0.893534 0.000000
0.256093 0.893703 0.000000
0.321282 0.893881 0.000000
0.388422 0.894067 0.000000
0.457515 0.894261 0.000000
0.528252 0.894463 0.000000
0.597761 0.894674 0.000000
0.665338 0.894893 0.000000
0.730983 0.895120 0.000000
0.794694 0.895355 0.000000
0.856470 0.895599 0.000000
0.916311 0.895850 0.000000
0.974215 0.896110 0.000000
1.000000 0.896379 0.000000
0.017969 0.951172 0.000000
0.075502 0.951339 0.000000
0.134984 0.951514 0.000000
0.196417 0.951697 0.000000
0.259802 0.951888 0.000000
0.325140 0.952086 0.000000
0.392431 0.952293 0.000000
0.461678 0.952508 0.000000
0.532471 0.952731 0.000000
0.601902 0.952961 0.000000
0.669399 0.953200 0.000000
0.734961 0.953446 0.000000
0.798587 0.953701 0.000000
0.860277 0.953963 0.000000
0.920028 0.954234 0.000000
0.977841 0.954512 0.000000
1.000000 0.954798 0.000000
0.021217 1.000000 0.000000
0.078893 1.000000 0.000000
0.138522 1.000000 0.000000
0.200103 1.000000 0.000000
0.263639 1.000000 0.000000
0.329130 1.000000 0.000000
0.396576 1.000000 0.000000
0.465980 1.000000 0.000000
0.536816 1.000000 0.000000
0.606165 1.000000 0.000000
0.673577 1.000000 0.000000
0.739053 1.000000 0.000000
0.802591 1.000000 0.000000
0.864190 1.000000 0.000000
0.923848 1.000000 0.000000
0.981566 1.000000 0.000000
1.000000 1.000000 0.000000
0.000000 0.008745 0.084707
0.038483 0.008516 0.083955
0.096230 0.008295 0.083196
0.155896 0.008082 0.082431
0.217481 0.007877 0.081660
0.280986 0.007680 0.080882
0.346412 0.007491 0.080098
0.413761 0.007309 0.079307
0.483032 0.007136 0.078511
0.553126 0.006970 0.077708
0.621429 0.006812 0.076898
0.687829 0.006661 0.076083
0.752327 0.006519 0.075261
0.814920 0.006384 0.074433
0.875607 0.006257 0.073598
0.934389 0.006138 0.072758
0.991263 0.006027 0.071911
0.000000 0.064217 0.082151
0.040192 0.064008 0.081377
0.098029 0.063807 0.080597
0.157787 0.063614 0.079811
0.219467 0.063429 0.079018
0.283069 0.063252 0.078219
0.348595 0.063084 0.077414
0.416045 0.062923 0.076602
0.485420 0.062771 0.075784
0.555517 0.062626 0.074960
0.623792 0.062490 0.074130
0.690162 0.062362 0.073293
0.754627 0.062242 0.072450
0.817185 0.062130 0.071601
0.877836 0.062026 0.070746
0.936579 0.061930 0.069884
0.993412 0.061842 0.069016
0.000000 0.121608 0.079523
0.042010 0.121421 0.078728
0.099942 0.121241 0.077927
0.159797 0.121070 0.077119
0.221575 0.120907 0.076305
0.285278 0.120753 0.075485
0.350906 0.120607 0.074659
0.418462 0.120469 0.073826
0.487944 0.120340 0.072987
0.558037 0.120219 0.072142
0.626280 0.120106 0.071290
0.692617 0.120002 0.070433
0.757045 0.119906 0.069569
0.819565 0.119818 0.068698
0.880176 0.119738 0.067822
0.938875 0.119667 0.066939
0.995664 0.119605 0.066051
0.000000 0.180929 0.076824
0.043939 0.180764 0.076007
0.101968 0.180608 0.075185
0.161923 0.180460 0.074356
0.223804 0.180321 0.073521
0.287611 0.180191 0.072680
0.353347 0.180069 0.071832
0.421011 0.179956 0.070979
0.490604 0.179851 0.070119
0.560686 0.179755 0.069253
0.628893 0.179668 0.068380
0.695192 0.179589 0.067501
0.759581 0.179519 0.066617
0.822059 0.179457 0.065726
0.882625 0.179404 0.064828
0.941278 0.179360 0.063925
0.998018 0.179324 0.063015
0.000000 0.242186 0.074053
0.045978 0.242046 0.073216
0.104109 0.241915 0.072372
0.164168 0.241793 0.071522
0.226155 0.241679 0.070666
0.290070 0.241575 0.069804
0.355916 0.241479 0.068936
0.423693 0.241392 0.068061
0.493401 0.241314 0.067180
0.563463 0.241245 0.066293
0.631631 0.241185 0.065400
0.697888 0.241133 0.064500
0.762233 0.241091 0.063594
0.824665 0.241057 0.062683
0.885184 0.241032 0.061765
0.943787 0.241016 0.060841
1.000000 0.241009 0.059910
0.000000 0.305390 0.071211
0.048128 0.305277 0.070353
0.106365 0.305172 0.069489
0.166531 0.305077 0.068618
0.228628 0.304991 0.067741
0.292655 0.304914 0.066858
0.358615 0.304846 0.065968
0.426508 0.304787 0.065073
0.496335 0.304738 0.064171
0.566367 0.304697 0.063263
0.634493 0.304666 0.062349
0.700705 0.304643 0.061429
0.765002 0.304630 0.060503
0.827385 0.304626 0.059570
0.887851 0.304631 0.058631
0.946401 0.304645 0.057687
1.000000 0.304669 0.056736
0.000000 0.370549 0.068299
0.050390 0.370464 0.067420
0.108736 0.370388 0.066535
0.169014 0.370322 0.065643
0.231224 0.370265 0.064745
0.295367 0.370217 0.063841
0.361444 0.370179 0.062931
0.429457 0.370150 0.062015
0.499406 0.370130 0.061092
0.569399 0.370120 0.060164
0.637478 0.370119 0.059229
0.703641 0.370128 0.058288
0.767887 0.370146 0.057341
0.830217 0.370174 0.056388
0.890628 0.370210 0.055429
0.949119 0.370256 0.054463
1.000000 0.370312 0.053492
0.000000 0.437673 0.065317
0.052764 0.437617 0.064417
0.111223 0.437572 0.063511
0.171615 0.437536 0.062598
0.233942 0.437510 0.061680
0.298205 0.437493 0.060755
0.364404 0.437486 0.059824
0.432541 0.437489 0.058887
0.502613 0.437502 0.057944
0.572558 0.437524 0.056995
0.640586 0.437555 0.056039
0.706696 0.437597 0.055078
0.770888 0.437648 0.054111
0.833160 0.437708 0.053137
0.893512 0.437778 0.052157
0.951942 0.437858 0.051171
1.000000 0.437948 0.050180
0.000000 0.506751 0.062265
0.055249 0.506728 0.061344
0.113825 0.506715 0.060417
0.174336 0.506711 0.059484
0.236785 0.506718 0.058545
0.301170 0.506734 0.057599
0.367495 0.506760 0.056648
0.435759 0.506796 0.055690
0.505950 0.506842 0.054727
0.575843 0.506898 0.053757
0.643817 0.506963 0.052781
0.709871 0.507039 0.051799
0.774004 0.507124 0.050811
0.836215 0.507219 0.049817
0.896504 0.507324 0.048817
0.954869 0.507439 0.047811
1.000000 0.507564 0.046799
0.001089 0.575595 0.059143
0.057848 0.575605 0.058201
0.116544 0.575624 0.057253
0.177178 0.575653 0.056300
0.239751 0.575692 0.055340
0.304264 0.575740 0.054374
0.370717 0.575797 0.053402
0.439113 0.575865 0.052424
0.509417 0.575942 0.051440
0.579254 0.576028 0.050450
0.647169 0.576124 0.049454
0.713163 0.576230 0.048451
0.777234 0.576345 0.047443
0.839381 0.576470 0.046429
0.899603 0.576604 0.045409
0.957899 0.576748 0.044382
1.000000 0.576902 0.043350
0.003679 0.642671 0.055951
0.060560 0.642712 0.054989
0.119380 0.642763 0.054021
0.180140 0.642822 0.053047
0.242842 0.642891 0.052067
0.307485 0.642969 0.051080
0.374072 0.643056 0.050088
0.442602 0.643153 0.049090
0.513012 0.643259 0.048085
0.582789 0.643375 0.047075
0.650643 0.643500 0.046058
0.716573 0.643634 0.045036
0.780578 0.643777 0.044007
0.842657 0.643930 0.042973
0.902808 0.644092 0.041932
0.961032 0.644263 0.040886
1.000000 0.644444 0.039833
0.006380 0.707972 0.052691
0.063386 0.708042 0.051708
0.122334 0.708121 0.050720
0.183224 0.708209 0.049725
0.246058 0.708307 0.048725
0.310835 0.708413 0.047718
0.377558 0.708529 0.046705
0.446228 0.708653 0.045687
0.516736 0.708787 0.044662
0.586450 0.708929 0.043631
0.654239 0.709081 0.042595
0.720101 0.709242 0.041552
0.784036 0.709412 0.040503
0.846042 0.709590 0.039449
0.906119 0.709778 0.038388
0.964266 0.709975 0.037322
1.000000 0.710181 0.036249
0.009190 0.771486 0.049362
0.066326 0.771584 0.048359
0.125406 0.771691 0.047350
0.186430 0.771806 0.046335
0.249399 0.771930 0.045314
0.314315 0.772063 0.044287
0.381179 0.772205 0.043254
0.449990 0.772355 0.042216
0.520588 0.772514 0.041171
0.590235 0.772682 0.040120
0.657954 0.772859 0.039063
0.723745 0.773045 0.038001
0.787606 0.773239 0.036932
0.849536 0.773442 0.035858
0.909536 0.773654 0.034777
0.967602 0.773875 0.033691
1.000000 0.774104 0.032599
0.012112 0.833207 0.045964
0.069381 0.833330 0.044941
0.128596 0.833462 0.043912
0.189758 0.833603 0.042877
0.252867 0.833752 0.041836
0.317925 0.833909 0.040789
0.384932 0.834075 0.039736
0.453890 0.834250 0.038677
0.524567 0.834433 0.037612
0.594143 0.834625 0.036542
0.661789 0.834825 0.035465
0.727504 0.835033 0.034382
0.791288 0.835251 0.033294
0.853139 0.835476 0.032199
0.913056 0.835710 0.031099
0.971039 0.835953 0.029993
1.000000 0.836204 0.028881
0.015146 0.893124 0.042499
0.072552 0.893271 0.041455
0.131906 0.893427 0.040406
0.193209 0.893591 0.039351
0.256462 0.893763 0.038290
0.321665 0.893943 0.037223
0.388820 0.894132 0.036150
0.457929 0.894329 0.035071
0.528672 0.894534 0.033987
0.598174 0.894747 0.032896
0.665743 0.894969 0.031800
0.731379 0.895199 0.030697
0.795082 0.895437 0.029589
0.856849 0.895683 0.028475
0.916681 0.895938 0.027355
0.974576 0.896201 0.026229
1.000000 0.896471 0.025097
0.018292 0.951228 0.038966
0.075839 0.951398 0.037902
0.135336 0.951575 0.036833
0.196783 0.951761 0.035758
0.260184 0.951954 0.034677
0.325537 0.952156 0.033590
0.392844 0.952365 0.032498
0.462106 0.952583 0.031399
0.532904 0.952808 0.030294
0.602327 0.953041 0.029184
0.669816 0.953283 0.028068
0.735369 0.953532 0.026946
0.798986 0.953789 0.025818
0.860667 0.954054 0.024684
0.920409 0.954327 0.023544
0.978212 0.954608 0.022399
1.000000 0.954897 0.021248
0.021551 1.000000 0.035365
0.079242 1.000000 0.034282
0.138886 1.000000 0.033193
0.200482 1.000000 0.032098
0.264034 1.000000 0.030997
0.329540 1.000000 0.029891
0.397002 1.000000 0.028778
0.466422 1.000000 0.027660
0.537261 1.000000 0.026536
0.606602 1.000000 0.025406
0.674006 1.000000 0.024270
0.739473 1.000000 0.023128
0.803001 1.000000 0.021981
0.864591 1.000000 0.020827
0.924240 1.000000 0.019668
0.981947 1.000000 0.018503
1.000000 1.000000 0.017333
0.000000 0.008666 0.143783
0.038651 0.008440 0.143008
0.096407 0.008222 0.142227
0.156081 0.008012 0.141439
0.217676 0.007810 0.140645
0.281190 0.007615 0.139844
0.346627 0.007428 0.139037
0.413985 0.007249 0.138223
0.483267 0.007078 0.137403
0.553361 0.006915 0.136576
0.621662 0.006760 0.135743
0.688059 0.006612 0.134903
0.752554 0.006472 0.134057
0.815143 0.006340 0.133205
0.875827 0.006216 0.132346
0.934605 0.006100 0.131480
0.991476 0.005991 0.130609
0.000000 0.064145 0.141151
0.040370 0.063939 0.140354
0.098217 0.063740 0.139551
0.157985 0.063550 0.138741
0.219674 0.063368 0.137925
0.283287 0.063194 0.137103
0.348823 0.063028 0.136274
0.416283 0.062871 0.135438
0.485669 0.062721 0.134596
0.555766 0.062579 0.133748
0.624037 0.062446 0.132893
0.690404 0.062320 0.132031
0.754866 0.062203 0.131164
0.817420 0.062094 0.130290
0.878067 0.061992 0.129409
0.936806 0.061899 0.128522
0.993635 0.061814 0.127629
0.000000 0.121544 0.138445
0.042200 0.121359 0.137627
0.100141 0.121182 0.136802
0.160006 0.121014 0.135970
0.221794 0.120854 0.135132
0.285508 0.120702 0.134288
0.351147 0.120559 0.133437
0.418713 0.120424 0.132580
0.488207 0.120298 0.131716
0.558299 0.120179 0.130846
0.626538 0.120070 0.129970
0.692871 0.119968 0.129087
0.757296 0.119875 0.128197
0.819812 0.119790 0.127302
0.880418 0.119713 0.126400
0.939113 0.119645 0.125491
0.995897 0.119585 0.124576
0.000000 0.180872 0.135666
0.044139 0.180710 0.134826
0.102179 0.180557 0.133979
0.162145 0.180412 0.133126
0.224036 0.180276 0.132266
0.287854 0.180148 0.131400
0.353600 0.180030 0.130528
0.421275 0.179919 0.129649
0.490881 0.179818 0.128764
0.560960 0.179725 0.127872
0.629164 0.179640 0.126974
0.695459 0.179564 0.126070
0.759843 0.179497 0.125159
0.822317 0.179438 0.124242
0.882878 0.179388 0.123318
0.941527 0.179347 0.122388
0.998261 0.179314 0.121452
0.000000 0.242138 0.132814
0.046190 0.242001 0.131952
0.104332 0.241872 0.131083
0.164401 0.241753 0.130209
0.226399 0.241643 0.129327
0.290326 0.241541 0.128440
0.356183 0.241449 0.127546
0.423971 0.241365 0.126646
0.493691 0.241290 0.125739
0.563750 0.241224 0.124826
0.631914 0.241166 0.123906
0.698167 0.241118 0.122980
0.762508 0.241078 0.122048
0.824935 0.241048 0.121109
0.885448 0.241026 0.120165
0.944046 0.241013 0.119213
1.000000 0.241009 0.118256
0.000000 0.305351 0.129889
0.048351 0.305240 0.129005
0.106599 0.305139 0.128115
0.166777 0.305047 0.127219
0.228884 0.304964 0.126316
0.292923 0.304890 0.125407
0.358895 0.304825 0.124492
0.426800 0.304769 0.123570
0.496639 0.304723 0.122642
0.566668 0.304685 0.121707
0.634788 0.304657 0.120766
0.700996 0.304638 0.119819
0.765288 0.304628 0.118866
0.827666 0.304627 0.117906
0.888127 0.304635 0.116940
0.946670 0.304652 0.115967
1.000000 0.304679 0.114988
0.000000 0.370519 0.126891
0.050624 0.370437 0.125986
0.108982 0.370365 0.125075
0.169271 0.370301 0.124157
0.231492 0.370247 0.123233
0.295648 0.370203 0.122302
0.361737 0.370168 0.121365
0.429763 0.370142 0.120422
0.499724 0.370126 0.119473
0.569712 0.370119 0.118517
0.637786 0.370121 0.117555
0.703944 0.370133 0.116586
0.768185 0.370154 0.115612
0.830509 0.370185 0.114630
0.890914 0.370225 0.113643
0.949400 0.370274 0.112650
1.000000 0.370333 0.111650
0.000000 0.437653 0.123821
0.053009 0.437601 0.122895
0.111480 0.437559 0.121962
0.171884 0.437526 0.121023
0.234224 0.437503 0.120077
0.298499 0.437490 0.119125
0.364710 0.437486 0.118167
0.432860 0.437492 0.117203
0.502944 0.437508 0.116232
0.572884 0.437533 0.115255
0.640906 0.437568 0.114272
0.707011 0.437613 0.113282
0.771197 0.437667 0.112286
0.833464 0.437731 0.111284
0.893809 0.437805 0.110276
0.952233 0.437888 0.109261
1.000000 0.437981 0.108241
0.000000 0.506742 0.120679
0.055507 0.506723 0.119731
0.114094 0.506713 0.118777
0.174618 0.506713 0.117817
0.237078 0.506722 0.116850
0.301477 0.506742 0.115877
0.367814 0.506771 0.114898
0.436091 0.506811 0.113912
0.506294 0.506860 0.112920
0.576181 0.506919 0.111922
0.644150 0.506988 0.110918
0.710198 0.507067 0.109907
0.774325 0.507155 0.108890
0.836530 0.507254 0.107867
0.896812 0.507362 0.106838
0.955170 0.507480 0.105803
1.000000 0.507608 0.104761
0.001346 0.575597 0.117466
0.058117 0.575610 0.116497
0.116825 0.575633 0.115521
0.177472 0.575665 0.114540
0.240057 0.575707 0.113552
0.304583 0.575758 0.112558
0.371050 0.575819 0.111557
0.439459 0.575890 0.110551
0.509774 0.575970 0.109538
0.579605 0.576060 0.108519
0.647515 0.576159 0.107493
0.713502 0.576268 0.106462
0.777566 0.576386 0.105424
0.839707 0.576514 0.104380
0.899922 0.576652 0.103330
0.958211 0.576799 0.102274
1.000000 0.576956 0.101211
0.003947 0.642684 0.114181
0.060840 0.642728 0.113191
0.119673 0.642782 0.112194
0.180446 0.642844 0.111192
0.243161 0.642916 0.110183
0.307817 0.642998 0.109168
0.374417 0.643088 0.108146
0.442962 0.643188 0.107119
0.513382 0.643298 0.106085
0.583153 0.643416 0.105045
0.651001 0.643544 0.103999
0.716924 0.643681 0.102946
0.780922 0.643828 0.101888
0.842993 0.643984 0.100823
0.903138 0.644149 0.099752
0.961354 0.644324 0.098675
1.000000 0.644508 0.097592
0.006658 0.707994 0.110825
0.063678 0.708068 0.109814
0.122639 0.708150 0.108796
0.183542 0.708241 0.107773
0.246389 0.708342 0.106743
0.311181 0.708451 0.105707
0.377918 0.708570 0.104665
0.446601 0.708697 0.103616
0.517119 0.708834 0.102562
0.586826 0.708980 0.101501
0.654608 0.709135 0.100434
0.720463 0.709298 0.099361
0.784391 0.709471 0.098281
0.846390 0.709653 0.097196
0.906459 0.709844 0.096105
0.964599 0.710044 0.095007
1.000000 0.710253 0.093903
0.009480 0.771518 0.107399
0.066630 0.771619 0.106366
0.125722 0.771729 0.105328
0.186760 0.771847 0.104284
0.249744 0.771974 0.103233
0.314674 0.772110 0.102176
0.381551 0.772255 0.101113
0.450378 0.772408 0.100044
0.520984 0.772570 0.098968
0.590624 0.772741 0.097887
0.658336 0.772921 0.096799
0.724119 0.773110 0.095706
0.787972 0.773307 0.094606
0.849895 0.773513 0.093500
0.909886 0.773728 0.092388
0.967945 0.773952 0.091270
1.000000 0.774184 0.090146
0.012414 0.833248 0.103902
0.069696 0.833374 0.102849
0.128925 0.833509 0.101790
0.190101 0.833652 0.100724
0.253224 0.833804 0.099653
0.318296 0.833965 0.098575
0.385319 0.834134 0.097492
0.454292 0.834311 0.096402
0.524976 0.834497 0.095306
0.594544 0.834692 0.094204
0.662183 0.834895 0.093096
0.727890 0.835106 0.091982
0.791666 0.835326 0.090861
0.853509 0.835555 0.089735
0.913418 0.835792 0.088602
0.971392 0.836037 0.087464
1.000000 0.836291 0.086320
0.015458 0.893173 0.100335
0.072879 0.893323 0.099261
0.132247 0.893481 0.098182
0.193564 0.893648 0.097096
0.256831 0.893823 0.096004
0.322050 0.894006 0.094905
0.389221 0.894198 0.093801
0.458344 0.894398 0.092691
0.529094 0.894606 0.091574
0.598587 0.894822 0.090452
0.666149 0.895046 0.089323
0.731777 0.895279 0.088189
0.795471 0.895520 0.087048
0.857230 0.895769 0.085901
0.917053 0.896026 0.084749
0.974939 0.896292 0.083590
1.000000 0.896565 0.082425
0.018616 0.951285 0.096699
0.076177 0.951457 0.095605
0.135688 0.951637 0.094504
0.197151 0.951826 0.093398
0.260566 0.952022 0.092285
0.325935 0.952226 0.091166
0.393257 0.952438 0.090042
0.462535 0.952658 0.088911
0.533338 0.952886 0.087774
0.602753 0.953122 0.086631
0.670233 0.953366 0.085482
0.735778 0.953618 0.084328
0.799387 0.953878 0.083167
0.861058 0.954146 0.082000
0.920791 0.954422 0.080827
0.978585 0.954706 0.079648
1.000000 0.954997 0.078463
0.021886 1.000000 0.092993
0.079592 1.000000 0.091879
0.139251 1.000000 0.090758
0.200863 1.000000 0.089631
0.264429 1.000000 0.088498
0.329951 1.000000 0.087359
0.397430 1.000000 0.086214
0.466866 1.000000 0.085063
0.537708 1.000000 0.083906
0.607040 1.000000 0.082742
0.674435 1.000000 0.081573
0.739893 1.000000 0.080398
0.803413 1.000000 0.079217
0.864993 1.000000 0.078030
0.924632 1.000000 0.076837
0.982330 1.000000 0.075639
1.000000 1.000000 0.074434
0.000000 0.008589 0.204406
0.038819 0.008365 0.203609
0.096584 0.008150 0.202805
0.156268 0.007942 0.201995
0.217872 0.007743 0.201178
0.281396 0.007551 0.200354
0.346842 0.007367 0.199523
0.414211 0.007190 0.198686
0.483504 0.007022 0.197842
0.553598 0.006861 0.196992
0.621896 0.006709 0.196135
0.688291 0.006564 0.195271
0.752782 0.006427 0.194400
