Samples/Looks/luts/fuse_cold_moonlight.cube
# FUSE sample creative LUT, generated for the FUSE samples (MIT, like the rest of FUSE).
# sRGB-encoded display domain, red fastest.
TITLE "FUSE cold moonlight"
LUT_3D_SIZE 17
DOMAIN_MIN 0.0 0.0 0.0
DOMAIN_MAX 1.0 1.0 1.0
0.000000 0.009216 0.028590
0.034890 0.013980 0.033979
0.070235 0.018752 0.039375
0.106033 0.023533 0.044777
0.142286 0.028322 0.050185
0.178993 0.033120 0.055599
0.216155 0.037927 0.061020
0.253771 0.042742 0.066448
0.291841 0.047565 0.071881
0.330365 0.052397 0.077321
0.369343 0.057237 0.082767
0.408776 0.062086 0.088220
0.448663 0.066944 0.093679
0.489005 0.071810 0.099145
0.529558 0.076684 0.104616
0.569691 0.081567 0.110094
0.609370 0.086458 0.115579
0.014515 0.059271 0.046745
0.049595 0.064123 0.052155
0.085129 0.068984 0.057572
0.121118 0.073854 0.062995
0.157560 0.078732 0.068425
0.194457 0.083618 0.073861
0.231808 0.088513 0.079303
0.269614 0.093417 0.084752
0.307874 0.098329 0.090207
0.346587 0.103249 0.095668
0.385756 0.108178 0.101136
0.425378 0.113116 0.106610
0.465455 0.118062 0.112090
0.505976 0.123016 0.117577
0.546374 0.127979 0.123070
0.586317 0.132951 0.128569
0.625806 0.137931 0.134075
0.029110 0.110249 0.064971
0.064379 0.115190 0.070403
0.100103 0.120140 0.075842
0.136281 0.125098 0.081286
0.172914 0.130064 0.086737
0.210000 0.135039 0.092194
0.247541 0.140023 0.097658
0.285536 0.145015 0.103128
0.323986 0.150016 0.108604
0.362889 0.155025 0.114087
0.402247 0.160043 0.119576
0.442059 0.165069 0.125071
0.482326 0.170103 0.130573
0.522902 0.175147 0.136081
0.563110 0.180198 0.141596
0.602863 0.185258 0.147116
0.642162 0.190327 0.152644
0.043783 0.162150 0.083270
0.079243 0.167180 0.088723
0.115156 0.172218 0.094183
0.151524 0.177265 0.099649
0.188346 0.182320 0.105121
0.225622 0.187384 0.110600
0.263353 0.192456 0.116085
0.301538 0.197537 0.121576
0.340177 0.202626 0.127074
0.379270 0.207724 0.132578
0.418818 0.212830 0.138088
0.458820 0.217945 0.143605
0.499276 0.223069 0.149128
0.539748 0.228200 0.154657
0.579766 0.233341 0.160193
0.619330 0.238489 0.165735
0.658440 0.243647 0.171284
0.058536 0.214975 0.101640
0.094185 0.220094 0.107115
0.130289 0.225221 0.112596
0.166846 0.230356 0.118083
0.203858 0.235500 0.123577
0.241324 0.240652 0.129077
0.279244 0.245813 0.134583
0.317619 0.250982 0.140096
0.356448 0.256160 0.145615
0.395731 0.261347 0.151140
0.435468 0.266542 0.156672
0.475660 0.271745 0.162210
0.516233 0.276957 0.167754
0.556515 0.282177 0.173305
0.596344 0.287406 0.178862
0.635718 0.292644 0.184426
0.674638 0.297890 0.189996
0.073369 0.268724 0.120082
0.109207 0.273931 0.125578
0.145500 0.279146 0.131081
0.182247 0.284370 0.136589
0.219449 0.289603 0.142104
0.257105 0.294844 0.147626
0.295215 0.300093 0.153153
0.333779 0.305351 0.158687
0.372797 0.310618 0.164228
0.412270 0.315893 0.169775
0.452197 0.321176 0.175328
0.492578 0.326468 0.180887
0.533111 0.331769 0.186453
0.573203 0.337078 0.192025
0.612842 0.342395 0.197604
0.652026 0.347722 0.203188
0.690757 0.353056 0.208780
0.088280 0.323396 0.138596
0.124308 0.328691 0.144114
0.160791 0.333995 0.149637
0.197728 0.339308 0.155167
0.235119 0.344629 0.160704
0.272964 0.349959 0.166246
0.311264 0.355297 0.171796
0.350018 0.360643 0.177351
0.389226 0.365999 0.182913
0.428889 0.371362 0.188481
0.469006 0.376734 0.194055
0.509552 0.382115 0.199636
0.549909 0.387504 0.205223
0.589812 0.392902 0.210817
0.629261 0.398308 0.216417
0.668256 0.403723 0.222023
0.706796 0.409146 0.227635
0.103270 0.378991 0.157182
0.139489 0.384375 0.162721
0.176161 0.389768 0.168266
0.213288 0.395169 0.173817
0.250868 0.400579 0.179375
0.288904 0.405997 0.184939
0.327393 0.411424 0.190510
0.366337 0.416859 0.196086
0.405735 0.422303 0.201669
0.445587 0.427755 0.207259
0.485893 0.433216 0.212855
0.526460 0.438685 0.218457
0.566628 0.444163 0.224065
0.606342 0.449649 0.229680
0.645601 0.455144 0.235301
0.684406 0.460647 0.240929
0.722757 0.466159 0.246563
0.118340 0.435510 0.175840
0.154748 0.440982 0.181400
0.191610 0.446464 0.186966
0.228926 0.451954 0.192539
0.266697 0.457452 0.198118
0.304922 0.462959 0.203704
0.343601 0.468474 0.209295
0.382734 0.473998 0.214893
0.422322 0.479530 0.220498
0.462364 0.485071 0.226109
0.502858 0.490621 0.231726
0.543290 0.496179 0.237349
0.583268 0.501744 0.242979
0.622792 0.507305 0.248615
0.661862 0.512858 0.254258
0.700477 0.518402 0.259907
0.738638 0.523937 0.265562
0.133489 0.492952 0.194569
0.170087 0.498513 0.200151
0.207139 0.504078 0.205739
0.244645 0.509636 0.211333
0.282605 0.515185 0.216933
0.321019 0.520726 0.222540
0.359888 0.526257 0.228153
0.399211 0.531781 0.233772
0.438989 0.537296 0.239398
0.479220 0.542802 0.245030
0.519798 0.548300 0.250669
0.560041 0.553790 0.256314
0.599829 0.559271 0.261965
0.639163 0.564743 0.267623
0.678043 0.570207 0.273287
0.716469 0.575663 0.278957
0.754440 0.581110 0.284633
0.148718 0.550605 0.213371
0.185505 0.556091 0.218974
0.222746 0.561568 0.224583
0.260442 0.567037 0.230198
0.298592 0.572497 0.235820
0.337196 0.577949 0.241448
0.376255 0.583392 0.247083
0.415768 0.588827 0.252723
0.455735 0.594254 0.258371
0.496156 0.599671 0.264024
0.536659 0.605081 0.269684
0.576712 0.610482 0.275350
0.616311 0.615874 0.281023
0.655455 0.621258 0.286702
0.694145 0.626633 0.292387
0.732381 0.632000 0.298078
0.770163 0.637358 0.303776
0.164025 0.607348 0.232244
0.201002 0.612745 0.237868
0.238433 0.618134 0.243499
0.276319 0.623514 0.249135
0.314658 0.628886 0.254779
0.353452 0.634249 0.260428
0.392701 0.639604 0.266084
0.432403 0.644950 0.271746
0.472560 0.650288 0.277415
0.513123 0.655617 0.283089
0.553441 0.660938 0.288771
0.593304 0.666250 0.294458
0.632713 0.671554 0.300152
0.671668 0.676849 0.305852
0.710168 0.682136 0.311559
0.748214 0.687414 0.317272
0.785806 0.692684 0.322991
0.179412 0.663168 0.251189
0.216578 0.668476 0.256835
0.254199 0.673777 0.262486
0.292274 0.679068 0.268145
0.330804 0.684351 0.273809
0.369788 0.689626 0.279480
0.409225 0.694892 0.285157
0.449118 0.700150 0.290841
0.489464 0.705399 0.296530
0.530016 0.710639 0.302227
0.570143 0.715871 0.307929
0.609817 0.721095 0.313638
0.649036 0.726310 0.319354
0.687801 0.731517 0.325075
0.726112 0.736715 0.330803
0.763968 0.741904 0.336537
0.801370 0.747085 0.342278
0.194878 0.718064 0.270206
0.232234 0.723284 0.275873
0.270045 0.728496 0.281546
0.308310 0.733699 0.287225
0.347029 0.738893 0.292911
0.386202 0.744079 0.298604
0.425830 0.749257 0.304302
0.465912 0.754426 0.310007
0.506436 0.759586 0.315718
0.546829 0.764738 0.321436
0.586767 0.769882 0.327160
0.626250 0.775017 0.332890
0.665280 0.780143 0.338627
0.703855 0.785261 0.344370
0.741976 0.790370 0.350119
0.779643 0.795471 0.355875
0.816856 0.800564 0.361637
0.210423 0.772037 0.289295
0.247969 0.777169 0.294983
0.285969 0.782291 0.300677
0.324424 0.787406 0.306378
0.363333 0.792512 0.312085
0.402696 0.797609 0.317799
0.442513 0.802698 0.323519
0.482785 0.807778 0.329245
0.523360 0.812850 0.334978
0.563562 0.817914 0.340717
0.603311 0.822968 0.346462
0.642605 0.828015 0.352214
0.681445 0.833053 0.357972
0.719830 0.838082 0.363736
0.757762 0.843103 0.369507
0.795239 0.848115 0.375284
0.832261 0.853119 0.381067
0.226047 0.825087 0.308455
0.263783 0.830129 0.314165
0.301973 0.835164 0.319881
0.340617 0.840190 0.325603
0.379716 0.845207 0.331332
0.419269 0.850216 0.337066
0.459276 0.855216 0.342808
0.499737 0.860208 0.348555
0.540204 0.865191 0.354309
0.580217 0.870165 0.360070
0.619776 0.875132 0.365836
0.658880 0.880089 0.371609
0.697530 0.885039 0.377389
0.735726 0.889979 0.383174
0.773468 0.894912 0.388966
0.810755 0.899835 0.394765
0.847588 0.904750 0.400569
0.241751 0.877213 0.327688
0.279676 0.882167 0.333419
0.318056 0.887113 0.339156
0.356890 0.892050 0.344899
0.396178 0.896978 0.350649
0.435921 0.901899 0.356406
0.476117 0.906810 0.362168
0.516692 0.911713 0.367937
0.556969 0.916608 0.373712
0.596792 0.921494 0.379494
0.636161 0.926372 0.385282
0.675076 0.931241 0.391077
0.713536 0.936101 0.396877
0.751543 0.940953 0.402684
0.789094 0.945797 0.408498
0.826192 0.950632 0.414317
0.862835 0.955459 0.420144
0.001462 0.010833 0.068594
0.036371 0.015600 0.074030
0.071735 0.020375 0.079472
0.107552 0.025159 0.084921
0.143825 0.029951 0.090376
0.180551 0.034752 0.095838
0.217732 0.039561 0.101306
0.255366 0.044379 0.106780
0.293456 0.049205 0.112260
0.331999 0.054040 0.117747
0.370997 0.058883 0.123241
0.410449 0.063735 0.128740
0.450355 0.068595 0.134246
0.490715 0.073464 0.139759
0.531260 0.078341 0.145277
0.571373 0.083227 0.150802
0.611033 0.088121 0.156334
0.015985 0.060918 0.086906
0.051084 0.065773 0.092364
0.086637 0.070637 0.097828
0.122645 0.075509 0.103298
0.159107 0.080390 0.108774
0.196023 0.085280 0.114257
0.233393 0.090177 0.119747
0.271218 0.095084 0.125242
0.309496 0.099999 0.130744
0.348230 0.104922 0.136252
0.387417 0.109854 0.141767
0.427059 0.114795 0.147288
0.467154 0.119743 0.152815
0.507688 0.124701 0.158349
0.548067 0.129667 0.163889
0.587991 0.134641 0.169435
0.627461 0.139624 0.174988
0.030587 0.111926 0.105291
0.065876 0.116870 0.110770
0.101619 0.121822 0.116255
0.137816 0.126783 0.121747
0.174468 0.131753 0.127244
0.211574 0.136731 0.132749
0.249134 0.141717 0.138259
0.287148 0.146712 0.143776
0.325617 0.151716 0.149299
0.364539 0.156728 0.154829
0.403916 0.161749 0.160365
0.443748 0.166778 0.165907
0.484033 0.171815 0.171456
0.524606 0.176861 0.177011
0.564795 0.181916 0.182572
0.604529 0.186979 0.188140
0.643809 0.192050 0.193714
0.045269 0.163858 0.123747
0.080748 0.168890 0.129248
0.116680 0.173931 0.134754
0.153067 0.178981 0.140267
0.189908 0.184039 0.145786
0.227204 0.189106 0.151312
0.264954 0.194181 0.156844
0.303158 0.199265 0.162382
0.341816 0.204357 0.167927
0.380928 0.209457 0.173478
0.420495 0.214566 0.179035
0.460516 0.219684 0.184599
0.500991 0.224810 0.190169
0.541444 0.229945 0.195745
0.581443 0.235088 0.201328
0.620988 0.240240 0.206917
0.660078 0.245400 0.212512
0.060030 0.216713 0.142276
0.095698 0.221834 0.147797
0.131821 0.226964 0.153325
0.168397 0.232102 0.158859
0.205428 0.237249 0.164400
0.242913 0.242404 0.169947
0.280853 0.247568 0.175500
0.319247 0.252740 0.181060
0.358094 0.257921 0.186626
0.397397 0.263110 0.192198
0.437153 0.268308 0.197777
0.477364 0.273514 0.203362
0.517940 0.278729 0.208953
0.558204 0.283952 0.214551
0.598013 0.289184 0.220155
0.637368 0.294424 0.225765
0.676269 0.299673 0.231382
0.074870 0.270491 0.160876
0.110728 0.275701 0.166419
0.147040 0.280919 0.171968
0.183807 0.286146 0.177524
0.221027 0.291382 0.183085
0.258702 0.296626 0.188654
0.296831 0.301878 0.194228
0.335415 0.307139 0.199809
0.374452 0.312408 0.205397
0.413944 0.317686 0.210990
0.453890 0.322973 0.216590
0.494291 0.328267 0.222197
0.534810 0.333571 0.227810
0.574884 0.338883 0.233429
0.614503 0.344203 0.239054
0.653668 0.349532 0.244686
0.692379 0.354870 0.250324
0.089790 0.325193 0.179548
0.125837 0.330492 0.185112
0.162339 0.335799 0.190683
0.199295 0.341114 0.196260
0.236705 0.346438 0.201843
0.274570 0.351771 0.207432
0.312889 0.357112 0.213028
0.351662 0.362461 0.218631
0.390889 0.367819 0.224240
0.430571 0.373186 0.229855
0.470707 0.378561 0.235476
0.511262 0.383944 0.241104
0.551600 0.389336 0.246738
0.591484 0.394737 0.252378
0.630914 0.400146 0.258025
0.669890 0.405563 0.263678
0.708411 0.410990 0.269338
0.104788 0.380818 0.198291
0.141025 0.386206 0.203877
0.177717 0.391601 0.209469
0.214863 0.397005 0.215067
0.252463 0.402418 0.220672
0.290517 0.407839 0.226283
0.329026 0.413269 0.231900
0.367988 0.418707 0.237524
0.407406 0.424153 0.243154
0.447277 0.429609 0.248791
0.487602 0.435072 0.254433
0.528163 0.440544 0.260082
0.568312 0.446025 0.265738
0.608006 0.451514 0.271400
0.647246 0.457012 0.277068
0.686032 0.462518 0.282742
0.724363 0.468033 0.288423
0.119866 0.437367 0.217107
0.156293 0.442843 0.222714
0.193174 0.448327 0.228327
0.230510 0.453820 0.233947
0.268299 0.459321 0.239573
0.306543 0.464831 0.245205
0.345242 0.470349 0.250844
0.384394 0.475876 0.256489
0.424001 0.481411 0.262141
0.464062 0.486955 0.267798
0.504572 0.492507 0.273462
0.544985 0.498068 0.279133
0.584944 0.503634 0.284810
0.624448 0.509192 0.290493
0.663499 0.514742 0.296182
0.702095 0.520283 0.301878
0.740237 0.525815 0.307580
0.135023 0.494839 0.235995
0.171640 0.500404 0.241623
0.208711 0.505967 0.247258
0.246236 0.511521 0.252899
0.284215 0.517068 0.258546
0.322649 0.522605 0.264200
0.361537 0.528134 0.269860
0.400879 0.533655 0.275526
0.440676 0.539167 0.281199
0.480926 0.544671 0.286878
0.521504 0.550166 0.292563
0.561727 0.555652 0.298255
0.601496 0.561130 0.303953
0.640811 0.566600 0.309658
0.679672 0.572061 0.315369
0.718079 0.577513 0.321086
0.756031 0.582957 0.326810
0.150259 0.552469 0.254954
0.187066 0.557952 0.260604
0.224326 0.563426 0.266260
0.262041 0.568892 0.271922
0.300210 0.574350 0.277591
0.338834 0.579799 0.283266
0.377911 0.585239 0.288947
0.417443 0.590671 0.294635
0.457430 0.596095 0.300329
0.497870 0.601509 0.306030
0.538357 0.606916 0.311736
0.578391 0.612314 0.317450
0.617970 0.617703 0.323169
0.657095 0.623084 0.328895
0.695766 0.628457 0.334627
0.733983 0.633821 0.340366
0.771745 0.639176 0.346111
0.165575 0.609182 0.273985
0.202571 0.614576 0.279656
0.240021 0.619962 0.285333
0.277926 0.625339 0.291017
0.316285 0.630708 0.296707
0.355098 0.636069 0.302404
0.394365 0.641420 0.308106
0.434087 0.646764 0.313816
0.474263 0.652099 0.319531
0.514832 0.657425 0.325253
0.555131 0.662743 0.330981
0.594975 0.668052 0.336716
0.634364 0.673353 0.342456
0.673300 0.678645 0.348204
0.711781 0.683929 0.353957
0.749808 0.689204 0.359717
0.787381 0.694471 0.365483
0.180970 0.664972 0.293088
0.218155 0.670277 0.298780
0.255795 0.675575 0.304479
0.293890 0.680863 0.310184
0.332438 0.686144 0.315896
0.371441 0.691415 0.321613
0.410898 0.696678 0.327338
0.450809 0.701933 0.333068
0.491175 0.707179 0.338805
0.531716 0.712417 0.344548
0.571825 0.717646 0.350298
0.611479 0.722867 0.356053
0.650680 0.728079 0.361816
0.689425 0.733283 0.367584
0.727717 0.738478 0.373359
0.765554 0.743665 0.379140
0.802937 0.748843 0.384928
0.196443 0.719838 0.312263
0.233819 0.725055 0.317977
0.271649 0.730264 0.323697
0.309933 0.735464 0.329423
0.348671 0.740655 0.335156
0.387863 0.745838 0.340895
0.427510 0.751013 0.346641
0.467611 0.756179 0.352392
0.508148 0.761337 0.358151
0.548522 0.766486 0.363915
0.588440 0.771626 0.369686
0.627905 0.776759 0.375463
0.666915 0.781882 0.381247
0.705472 0.786997 0.387037
0.743573 0.792104 0.392833
0.781221 0.797202 0.398636
0.818414 0.802291 0.404445
0.211997 0.773781 0.331509
0.249562 0.778909 0.337245
0.287581 0.784029 0.342986
0.326055 0.789141 0.348734
0.364983 0.794244 0.354488
0.404365 0.799338 0.360248
0.444202 0.804424 0.366015
0.484492 0.809502 0.371789
0.525064 0.814571 0.377568
0.565247 0.819631 0.383354
0.604977 0.824683 0.389146
0.644251 0.829727 0.394945
0.683072 0.834762 0.400750
0.721439 0.839788 0.406561
0.759351 0.844806 0.412379
0.796809 0.849815 0.418203
0.833812 0.854816 0.424033
0.227629 0.826800 0.350828
0.265384 0.831840 0.356584
0.303593 0.836871 0.362347
0.342256 0.841894 0.368116
0.381374 0.846909 0.373892
0.420946 0.851915 0.379674
0.460972 0.856912 0.385462
0.501452 0.861901 0.391257
0.541900 0.866881 0.397057
0.581894 0.871853 0.402865
0.621433 0.876816 0.408678
0.660519 0.881771 0.414498
0.699150 0.886717 0.420324
0.737326 0.891655 0.426157
0.775049 0.896585 0.431996
0.812317 0.901505 0.437841
0.849131 0.906418 0.443693
0.243341 0.878896 0.370218
0.281285 0.883848 0.375996
0.319684 0.888790 0.381780
0.358537 0.893725 0.387571
0.397845 0.898650 0.393368
0.437606 0.903568 0.399171
0.477822 0.908476 0.404980
0.518399 0.913376 0.410796
0.558657 0.918268 0.416619
0.598461 0.923151 0.422447
0.637811 0.928026 0.428282
0.676707 0.932892 0.434123
0.715148 0.937750 0.439971
0.753135 0.942599 0.445825
0.790668 0.947440 0.451685
0.827746 0.952272 0.457552
0.864370 0.957096 0.463425
0.002924 0.012451 0.108945
0.037853 0.017220 0.114428
0.073235 0.021999 0.119917
0.109072 0.026785 0.125413
0.145364 0.031580 0.130915
0.182109 0.036384 0.136423
0.219309 0.041196 0.141938
0.256963 0.046017 0.147459
0.295071 0.050846 0.152987
0.333634 0.055684 0.158521
0.372651 0.060530 0.164061
0.412122 0.065385 0.169608
0.452047 0.070248 0.175160
0.492427 0.075119 0.180720
0.532960 0.080000 0.186285
0.573054 0.084888 0.191857
0.612695 0.089786 0.197436
0.017456 0.062566 0.127415
0.052574 0.067424 0.132920
0.088146 0.072291 0.138430
0.124173 0.077166 0.143948
0.160654 0.082050 0.149471
0.197589 0.086942 0.155001
0.234978 0.091843 0.160537
0.272822 0.096752 0.166080
0.311120 0.101670 0.171628
0.349872 0.106596 0.177184
0.389079 0.111531 0.182745
0.428740 0.116474 0.188313
0.468855 0.121426 0.193887
0.509400 0.126386 0.199468
0.549759 0.131355 0.205055
0.589664 0.136333 0.210648
0.629115 0.141318 0.216248
0.032066 0.113604 0.145958
0.067374 0.118551 0.151483
0.103136 0.123506 0.157016
0.139352 0.128470 0.162554
0.176023 0.133443 0.168099
0.213148 0.138423 0.173650
0.250727 0.143413 0.179208
0.288761 0.148411 0.184772
0.327248 0.153417 0.190342
0.366190 0.158432 0.195918
0.405587 0.163456 0.201501
0.445437 0.168487 0.207090
0.485742 0.173528 0.212686
0.526309 0.178577 0.218288
0.566479 0.183634 0.223896
0.606194 0.188700 0.229511
0.645455 0.193775 0.235132
0.046756 0.165566 0.164572
0.082253 0.170601 0.170119
0.118205 0.175645 0.175673
0.154611 0.180698 0.181233
0.191472 0.185759 0.186799
0.228786 0.190828 0.192371
0.266555 0.195906 0.197950
0.304778 0.200993 0.203535
0.343456 0.206088 0.209127
0.382587 0.211191 0.214725
0.422173 0.216304 0.220329
0.462213 0.221424 0.225940
0.502706 0.226553 0.231557
0.543140 0.231691 0.237180
0.583120 0.236837 0.242810
0.622645 0.241991 0.248446
0.661716 0.247154 0.254088
0.061525 0.218451 0.183258
0.097212 0.223575 0.188827
0.133353 0.228708 0.194402
0.169949 0.233849 0.199983
0.206999 0.238998 0.205570
0.244504 0.244157 0.211164
0.282462 0.249323 0.216764
0.320875 0.254498 0.222371
0.359742 0.259682 0.227984
0.399064 0.264874 0.233603
0.438839 0.270075 0.239229
0.479069 0.275284 0.244861
0.519647 0.280502 0.250499
0.559891 0.285728 0.256144
0.599681 0.290963 0.261795
0.639017 0.296206 0.267452
0.677899 0.301458 0.273116
0.076373 0.272260 0.202016
0.112250 0.277472 0.207606
0.148581 0.282694 0.213202
0.185367 0.287923 0.218805
0.222606 0.293162 0.224414
0.260300 0.298408 0.230029
0.298449 0.303664 0.235651
0.337051 0.308927 0.241279
0.376108 0.314200 0.246913
0.415619 0.319480 0.252553
0.455584 0.324770 0.258200
0.496004 0.330068 0.263854
0.536509 0.335374 0.269513
0.576563 0.340689 0.275179
0.616163 0.346012 0.280852
0.655310 0.351344 0.286531
0.694001 0.356684 0.292216
0.091300 0.326992 0.220846
0.127367 0.332293 0.226457
0.163888 0.337603 0.232075
0.200863 0.342921 0.237699
0.238292 0.348248 0.243329
0.276176 0.353583 0.248966
0.314514 0.358927 0.254609
0.353306 0.364280 0.260258
0.392553 0.369641 0.265914
0.432254 0.375010 0.271575
0.472409 0.380388 0.277244
0.512972 0.385774 0.282919
0.553291 0.391169 0.288600
0.593156 0.396573 0.294287
0.632567 0.401985 0.299981
0.671523 0.407405 0.305681
0.710025 0.412834 0.311387
0.106307 0.382647 0.239748
0.142563 0.388037 0.245380
0.179274 0.393435 0.251019
0.216439 0.398842 0.256665
0.254058 0.404258 0.262316
0.292131 0.409682 0.267974
0.330659 0.415115 0.273638
0.369641 0.420556 0.279309
0.409077 0.426005 0.284986
0.448968 0.431463 0.290669
0.489312 0.436930 0.296359
0.529865 0.442405 0.302055
0.569994 0.447888 0.307758
0.609669 0.453380 0.313466
0.648890 0.458881 0.319181
0.687657 0.464390 0.324903
0.725969 0.469908 0.330631
0.121393 0.439226 0.258721
0.157839 0.444704 0.264375
0.194739 0.450192 0.270036
0.232094 0.455687 0.275702
0.269903 0.461191 0.281375
0.308166 0.466704 0.287054
0.346883 0.472225 0.292740
0.386055 0.477755 0.298432
0.425681 0.483293 0.304130
0.465761 0.488840 0.309835
0.506284 0.494395 0.315546
0.546679 0.499958 0.321264
0.586618 0.505522 0.326987
0.626104 0.511078 0.332717
0.665135 0.516624 0.338454
0.703712 0.522163 0.344197
0.741835 0.527692 0.349946
0.136558 0.496728 0.277767
0.173193 0.502294 0.283442
0.210283 0.507854 0.289124
0.247828 0.513406 0.294812
0.285826 0.518949 0.300506
0.324279 0.524484 0.306207
0.363186 0.530010 0.311914
0.402548 0.535528 0.317627
0.442363 0.541037 0.323347
0.482633 0.546538 0.329073
0.523209 0.552030 0.334805
0.563413 0.557514 0.340544
0.603163 0.562989 0.346289
0.642459 0.568455 0.352040
0.681300 0.573914 0.357798
0.719688 0.579363 0.363562
0.757621 0.584804 0.369333
0.151802 0.554332 0.296884
0.188627 0.559812 0.302581
0.225907 0.565283 0.308284
0.263641 0.570746 0.313993
0.301829 0.576201 0.319709
0.340472 0.581647 0.325431
0.379569 0.587085 0.331159
0.419120 0.592514 0.336894
0.459125 0.597934 0.342635
0.499585 0.603347 0.348382
0.540054 0.608750 0.354136
0.580068 0.614145 0.359896
0.619629 0.619532 0.365662
0.658735 0.624910 0.371435
0.697387 0.630279 0.377214
0.735584 0.635640 0.383000
0.773327 0.640993 0.388792
0.167125 0.611015 0.316073
0.204141 0.616406 0.321791
0.241610 0.621789 0.327515
0.279534 0.627164 0.333246
0.317912 0.632530 0.338983
0.356744 0.637887 0.344726
0.396031 0.643236 0.350476
0.435771 0.648577 0.356232
0.475966 0.653908 0.361995
0.516540 0.659232 0.367763
0.556819 0.664547 0.373539
0.596644 0.669853 0.379320
0.636015 0.675151 0.385108
0.674931 0.680441 0.390902
0.713394 0.685722 0.396703
0.751401 0.690994 0.402509
0.788955 0.696258 0.408323
0.182528 0.666774 0.335334
0.219733 0.672077 0.341073
0.257392 0.677372 0.346819
0.295506 0.682657 0.352571
0.334073 0.687935 0.358329
0.373095 0.693204 0.364094
0.412571 0.698464 0.369865
0.452502 0.703716 0.375643
0.492887 0.708959 0.381426
0.533417 0.714194 0.387217
0.573506 0.719420 0.393013
0.613141 0.724638 0.398816
0.652322 0.729847 0.404625
0.691049 0.735048 0.410441
0.729321 0.740241 0.416262
0.767139 0.745424 0.422091
0.804503 0.750600 0.427925
0.198010 0.721611 0.354667
0.235405 0.726825 0.360427
0.273253 0.732031 0.366194
0.311557 0.737228 0.371968
0.350314 0.742417 0.377748
0.389526 0.747597 0.383534
0.429192 0.752768 0.389326
0.469312 0.757932 0.395125
0.509860 0.763086 0.400930
0.550214 0.768233 0.406741
0.590113 0.773370 0.412559
0.629559 0.778499 0.418384
0.668550 0.783620 0.424214
0.707087 0.788732 0.430051
0.745170 0.793836 0.435894
0.782798 0.798931 0.441744
0.819972 0.804018 0.447600
0.213571 0.775523 0.374071
0.251155 0.780649 0.379853
0.289194 0.785766 0.385642
0.327687 0.790875 0.391436
0.366634 0.795975 0.397238
0.406035 0.801066 0.403045
0.445891 0.806150 0.408859
0.486201 0.811224 0.414679
0.526767 0.816290 0.420505
0.566931 0.821348 0.426338
0.606641 0.826397 0.432177
0.645897 0.831437 0.438023
0.684699 0.836469 0.443875
0.723046 0.841493 0.449733
0.760939 0.846508 0.455598
0.798378 0.851515 0.461469
0.835362 0.856513 0.467346
0.229211 0.828513 0.393548
0.266986 0.833550 0.399351
0.305214 0.838578 0.405161
0.343896 0.843598 0.410977
0.383033 0.848610 0.416799
0.422624 0.853613 0.422628
0.462670 0.858607 0.428463
0.503166 0.863593 0.434305
0.543595 0.868571 0.440153
0.583570 0.873540 0.446007
0.623090 0.878500 0.451867
0.662156 0.883452 0.457734
0.700768 0.888395 0.463608
0.738926 0.893330 0.469487
0.776629 0.898257 0.475373
0.813878 0.903175 0.481265
0.850673 0.908084 0.487164
0.244931 0.880579 0.413096
0.282895 0.885527 0.418921
0.321313 0.890467 0.424752
0.360185 0.895398 0.430589
0.399512 0.900321 0.436433
0.439292 0.905236 0.442283
0.479527 0.910141 0.448140
0.520105 0.915039 0.454003
0.560344 0.919928 0.459872
0.600129 0.924808 0.465747
0.639460 0.929680 0.471629
0.678336 0.934543 0.477518
0.716758 0.939398 0.483412
0.754726 0.944244 0.489313
0.792240 0.949082 0.495220
0.829299 0.953911 0.501134
0.865904 0.958732 0.507045
0.004388 0.014070 0.149643
0.039335 0.018842 0.155173
0.074737 0.023623 0.160709
0.110593 0.028413 0.166252
0.146904 0.033211 0.171801
0.183668 0.038017 0.177356
0.220887 0.042832 0.182918
0.258560 0.047656 0.188486
0.296688 0.052488 0.194060
0.335270 0.057328 0.199641
0.374306 0.062178 0.205228
0.413796 0.067035 0.210822
0.453740 0.071901 0.216422
