Samples/Looks/luts/fuse_warm_print.cube
# FUSE sample creative LUT, generated for the FUSE samples (MIT, like the rest of FUSE).
# sRGB-encoded display domain, red fastest.
TITLE "FUSE warm print"
LUT_3D_SIZE 9
DOMAIN_MIN 0.0 0.0 0.0
DOMAIN_MAX 1.0 1.0 1.0
0.000000 0.008824 0.027180
0.096055 0.008369 0.025713
0.217287 0.007946 0.024222
0.346199 0.007554 0.022706
0.482799 0.007194 0.021166
0.621197 0.006864 0.019601
0.752101 0.006566 0.018011
0.875389 0.006300 0.016398
0.991052 0.006064 0.014759
0.000000 0.121674 0.022148
0.099744 0.121301 0.020599
0.221357 0.120962 0.019025
0.350667 0.120656 0.017427
0.487683 0.120383 0.015804
0.626023 0.120143 0.014157
0.756796 0.119937 0.012486
0.879934 0.119764 0.010790
0.995432 0.119625 0.009071
0.000000 0.242236 0.016839
0.103888 0.241959 0.015207
0.225912 0.241717 0.013551
0.355651 0.241511 0.011871
0.493113 0.241340 0.010167
0.631349 0.241204 0.008439
0.761960 0.241104 0.006686
0.884920 0.241040 0.004910
1.000000 0.241010 0.003109
0.000000 0.370580 0.011254
0.108491 0.370413 0.009540
0.230956 0.370283 0.007803
0.361153 0.370191 0.006042
0.499090 0.370136 0.004257
0.637171 0.370119 0.002448
0.767591 0.370139 0.000615
0.890343 0.370197 0.000000
1.000000 0.370292 0.000000
0.000000 0.506762 0.005395
0.113557 0.506718 0.003601
0.236492 0.506715 0.001783
0.367177 0.506750 0.000000
0.505608 0.506825 0.000000
0.643485 0.506940 0.000000
0.773684 0.507094 0.000000
0.896197 0.507287 0.000000
1.000000 0.507520 0.000000
0.003413 0.642660 0.000000
0.119089 0.642744 0.000000
0.242524 0.642866 0.000000
0.373727 0.643026 0.000000
0.512643 0.643222 0.000000
0.650287 0.643456 0.000000
0.780235 0.643727 0.000000
0.902480 0.644036 0.000000
1.000000 0.644382 0.000000
0.008902 0.771455 0.000000
0.125090 0.771653 0.000000
0.249056 0.771887 0.000000
0.380807 0.772155 0.000000
0.520193 0.772459 0.000000
0.657573 0.772798 0.000000
0.787240 0.773172 0.000000
0.909186 0.773581 0.000000
1.000000 0.774025 0.000000
0.014835 0.893075 0.000000
0.131566 0.893373 0.000000
0.256093 0.893703 0.000000
0.388422 0.894067 0.000000
0.528252 0.894463 0.000000
0.665338 0.894893 0.000000
0.794694 0.895355 0.000000
0.916311 0.895850 0.000000
1.000000 0.896379 0.000000
0.021217 1.000000 0.000000
0.138522 1.000000 0.000000
0.263639 1.000000 0.000000
0.396576 1.000000 0.000000
0.536816 1.000000 0.000000
0.673577 1.000000 0.000000
0.802591 1.000000 0.000000
0.923848 1.000000 0.000000
1.000000 1.000000 0.000000
0.000000 0.008666 0.143783
0.096407 0.008222 0.142227
0.217676 0.007810 0.140645
0.346627 0.007428 0.139037
0.483267 0.007078 0.137403
0.621662 0.006760 0.135743
0.752554 0.006472 0.134057
0.875827 0.006216 0.132346
0.991476 0.005991 0.130609
0.000000 0.121544 0.138445
0.100141 0.121182 0.136802
0.221794 0.120854 0.135132
0.351147 0.120559 0.133437
0.488207 0.120298 0.131716
0.626538 0.120070 0.129970
0.757296 0.119875 0.128197
0.880418 0.119713 0.126400
0.995897 0.119585 0.124576
0.000000 0.242138 0.132814
0.104332 0.241872 0.131083
0.226399 0.241643 0.129327
0.356183 0.241449 0.127546
0.493691 0.241290 0.125739
0.631914 0.241166 0.123906
0.762508 0.241078 0.122048
0.885448 0.241026 0.120165
1.000000 0.241009 0.118256
0.000000 0.370519 0.126891
0.108982 0.370365 0.125075
0.231492 0.370247 0.123233
0.361737 0.370168 0.121365
0.499724 0.370126 0.119473
0.637786 0.370121 0.117555
0.768185 0.370154 0.115612
0.890914 0.370225 0.113643
1.000000 0.370333 0.111650
0.000000 0.506742 0.120679
0.114094 0.506713 0.118777
0.237078 0.506722 0.116850
0.367814 0.506771 0.114898
0.506294 0.506860 0.112920
0.644150 0.506988 0.110918
0.774325 0.507155 0.108890
0.896812 0.507362 0.106838
1.000000 0.507608 0.104761
0.003947 0.642684 0.114181
0.119673 0.642782 0.112194
0.243161 0.642916 0.110183
0.374417 0.643088 0.108146
0.513382 0.643298 0.106085
0.651001 0.643544 0.103999
0.780922 0.643828 0.101888
0.903138 0.644149 0.099752
1.000000 0.644508 0.097592
0.009480 0.771518 0.107399
0.125722 0.771729 0.105328
0.249744 0.771974 0.103233
0.381551 0.772255 0.101113
0.520984 0.772570 0.098968
0.658336 0.772921 0.096799
0.787972 0.773307 0.094606
0.909886 0.773728 0.092388
1.000000 0.774184 0.090146
0.015458 0.893173 0.100335
0.132247 0.893481 0.098182
0.256831 0.893823 0.096004
0.389221 0.894198 0.093801
0.529094 0.894606 0.091574
0.666149 0.895046 0.089323
0.795471 0.895520 0.087048
0.917053 0.896026 0.084749
1.000000 0.896565 0.082425
0.021886 1.000000 0.092993
0.139251 1.000000 0.090758
0.264429 1.000000 0.088498
0.397430 1.000000 0.086214
0.537708 1.000000 0.083906
0.674435 1.000000 0.081573
0.803413 1.000000 0.079217
0.924632 1.000000 0.076837
1.000000 1.000000 0.074434
0.000000 0.008512 0.266578
0.096763 0.008079 0.264932
0.218069 0.007677 0.263258
0.347060 0.007306 0.261557
0.483741 0.006967 0.259829
0.622131 0.006659 0.258073
0.753011 0.006382 0.256290
0.876271 0.006136 0.254480
0.991903 0.005922 0.252643
0.000000 0.121417 0.260931
0.100544 0.121067 0.259193
0.222237 0.120750 0.257427
0.351632 0.120467 0.255634
0.488736 0.120217 0.253814
0.627058 0.120000 0.251967
0.757801 0.119816 0.250093
0.880906 0.119666 0.248192
0.996366 0.119549 0.246264
0.000000 0.242044 0.254975
0.104780 0.241790 0.253145
0.226891 0.241573 0.251288
0.356720 0.241391 0.249404
0.494275 0.241244 0.247493
0.632485 0.241132 0.245555
0.763060 0.241057 0.243590
0.885980 0.241016 0.241599
1.000000 0.241011 0.239581
0.000000 0.370462 0.248711
0.109477 0.370321 0.246791
0.232034 0.370216 0.244843
0.362327 0.370149 0.242868
0.500364 0.370120 0.240867
0.638406 0.370128 0.238840
0.768784 0.370174 0.236785
0.891490 0.370257 0.234704
1.000000 0.370378 0.232597
0.000000 0.506728 0.242143
0.114636 0.506711 0.240132
0.237670 0.506735 0.238095
0.368457 0.506797 0.236031
0.506986 0.506899 0.233940
0.644819 0.507040 0.231823
0.774970 0.507221 0.229680
0.897431 0.507441 0.227510
1.000000 0.507701 0.225314
0.004486 0.642713 0.235273
0.120262 0.642823 0.233172
0.243802 0.642971 0.231046
0.375114 0.643155 0.228893
0.514127 0.643377 0.226714
0.651720 0.643636 0.224508
0.781613 0.643933 0.222277
0.903800 0.644267 0.220019
1.000000 0.644638 0.217736
0.010064 0.771586 0.228102
0.126359 0.771808 0.225914
0.250436 0.772065 0.223699
0.382301 0.772358 0.221458
0.521780 0.772686 0.219191
0.659103 0.773048 0.216898
0.788709 0.773446 0.214579
0.910591 0.773879 0.212234
1.000000 0.774347 0.209864
0.016087 0.893274 0.220635
0.132932 0.893594 0.218359
0.257575 0.893947 0.216057
0.390025 0.894333 0.213728
0.529941 0.894751 0.211374
0.666964 0.895203 0.208995
0.796253 0.895688 0.206590
0.917799 0.896206 0.204159
1.000000 0.896756 0.201703
0.022560 1.000000 0.212874
0.139985 1.000000 0.210511
0.265225 1.000000 0.208122
0.398289 1.000000 0.205708
0.538605 1.000000 0.203268
0.675298 1.000000 0.200802
0.804239 1.000000 0.198312
0.925420 1.000000 0.195796
1.000000 1.000000 0.193255
0.000000 0.008361 0.395565
0.097124 0.007939 0.393827
0.218468 0.007547 0.392061
0.347498 0.007187 0.390266
0.484221 0.006858 0.388442
0.622606 0.006561 0.386590
0.753473 0.006295 0.384709
0.876719 0.006060 0.382799
0.992335 0.005856 0.380861
0.000000 0.121294 0.389606
0.100951 0.120956 0.387771
0.222685 0.120650 0.385908
0.352122 0.120378 0.384017
0.489270 0.120139 0.382097
0.627584 0.119934 0.380148
0.758310 0.119762 0.378171
0.881398 0.119623 0.376166
0.996839 0.119517 0.374132
0.000000 0.241954 0.383321
0.105234 0.241713 0.381391
0.227388 0.241507 0.379432
0.357262 0.241337 0.377445
0.494865 0.241202 0.375429
0.633060 0.241103 0.373385
0.763616 0.241039 0.371313
0.886517 0.241010 0.369212
1.000000 0.241017 0.367084
0.000000 0.370410 0.376714
0.109977 0.370281 0.374688
0.232580 0.370189 0.372634
0.362922 0.370135 0.370551
0.501009 0.370119 0.368441
0.639031 0.370140 0.366302
0.769388 0.370198 0.364135
0.892070 0.370294 0.361941
1.000000 0.370428 0.359719
0.000000 0.506718 0.369786
0.115183 0.506715 0.367665
0.238266 0.506751 0.365517
0.369105 0.506827 0.363340
0.507684 0.506942 0.361135
0.645494 0.507097 0.358903
0.775620 0.507291 0.356642
0.898055 0.507525 0.354354
1.000000 0.507798 0.352039
0.005029 0.642746 0.362540
0.120856 0.642869 0.360325
0.244449 0.643029 0.358083
0.375815 0.643226 0.355813
0.514876 0.643461 0.353515
0.652443 0.643733 0.351189
0.782309 0.644042 0.348836
0.904466 0.644389 0.346455
1.000000 0.644772 0.344048
0.010651 0.771657 0.354979
0.127001 0.771892 0.352671
0.251134 0.772161 0.350336
0.383057 0.772465 0.347972
0.522580 0.772805 0.345582
0.659875 0.773179 0.343164
0.789450 0.773589 0.340719
0.911300 0.774034 0.338247
1.000000 0.774514 0.335748
0.016720 0.893379 0.347105
0.133622 0.893710 0.344705
0.258324 0.894074 0.342277
0.390834 0.894471 0.339822
0.530793 0.894901 0.337340
0.667784 0.895364 0.334831
0.797039 0.895860 0.332295
0.918550 0.896389 0.329732
1.000000 0.896950 0.327143
0.023239 1.000000 0.338922
0.140723 1.000000 0.336430
0.266026 1.000000 0.333911
0.399153 1.000000 0.331365
0.539508 1.000000 0.328793
0.676165 1.000000 0.326193
0.805069 1.000000 0.323567
0.926212 1.000000 0.320914
1.000000 1.000000 0.318235
0.000000 0.008214 0.530434
0.097490 0.007802 0.528640
0.218872 0.007421 0.526814
0.347941 0.007072 0.524957
0.484706 0.006754 0.523067
0.623086 0.006467 0.521145
0.753940 0.006212 0.519191
0.877171 0.005987 0.517205
0.992771 0.005794 0.515187
0.000000 0.121176 0.524272
0.101362 0.120848 0.522371
0.223137 0.120554 0.520437
0.352617 0.120293 0.518472
0.489810 0.120066 0.516474
0.628114 0.119871 0.514444
0.758825 0.119711 0.512382
0.881895 0.119583 0.510287
0.997317 0.119489 0.508160
0.000000 0.241868 0.517748
0.105692 0.241639 0.515739
0.227890 0.241445 0.513697
0.357810 0.241287 0.511623
0.495460 0.241164 0.509516
0.633640 0.241077 0.507377
0.764178 0.241025 0.505205
0.887057 0.241009 0.503001
1.000000 0.241028 0.500764
0.000000 0.370362 0.510859
0.110481 0.370246 0.508741
0.233132 0.370167 0.506590
0.363522 0.370125 0.504407
0.501659 0.370122 0.502191
0.639661 0.370155 0.499942
0.769996 0.370227 0.497662
0.892655 0.370335 0.495353
1.000000 0.370482 0.493015
0.000350 0.506712 0.503604
0.115734 0.506723 0.501376
0.238868 0.506773 0.499115
0.369758 0.506862 0.496825
0.508386 0.506991 0.494505
0.646173 0.507159 0.492156
0.776275 0.507366 0.489778
0.898683 0.507613 0.487371
1.000000 0.507900 0.484935
0.005576 0.642784 0.495984
0.121455 0.642919 0.493653
0.245101 0.643092 0.491294
0.376522 0.643302 0.488905
0.515630 0.643549 0.486487
0.653171 0.643834 0.484041
0.783010 0.644156 0.481565
0.905137 0.644515 0.479061
1.000000 0.644911 0.476528
0.011244 0.771733 0.488028
0.127648 0.771979 0.485600
0.251837 0.772260 0.483143
0.383817 0.772577 0.480657
0.523387 0.772928 0.478142
0.660652 0.773315 0.475598
0.790196 0.773736 0.473026
0.912013 0.774193 0.470425
1.000000 0.774685 0.467796
0.017357 0.893488 0.479744
0.134317 0.893830 0.477219
0.259078 0.894205 0.474665
0.391649 0.894614 0.472083
0.531650 0.895055 0.469472
0.668609 0.895529 0.466832
0.797830 0.896036 0.464164
0.919305 0.896576 0.461468
1.000000 0.897149 0.458744
0.023922 1.000000 0.471135
0.141467 1.000000 0.468514
0.266832 1.000000 0.465864
0.400023 1.000000 0.463186
0.540415 1.000000 0.460479
0.677037 1.000000 0.457745
0.805904 1.000000 0.454982
0.927008 1.000000 0.452192
1.000000 1.000000 0.449373
0.000000 0.008071 0.662841
0.097860 0.007669 0.661119
0.219280 0.007299 0.659367
0.348390 0.006961 0.657584
0.485196 0.006653 0.655770
0.623571 0.006377 0.653926
0.754412 0.006132 0.652051
0.877628 0.005918 0.650145
0.993211 0.005735 0.648209
0.000000 0.121061 0.656927
0.101778 0.120744 0.655102
0.223595 0.120462 0.653247
0.353118 0.120212 0.651361
0.490356 0.119996 0.649444
0.628649 0.119813 0.647496
0.759344 0.119664 0.645517
0.882396 0.119547 0.643507
0.997798 0.119465 0.641467
0.000000 0.241786 0.650666
0.106154 0.241569 0.648738
0.228397 0.241388 0.646779
0.358363 0.241241 0.644789
0.496061 0.241131 0.642768
0.634226 0.241055 0.640716
0.764744 0.241016 0.638633
0.887603 0.241011 0.636518
1.000000 0.241042 0.634372
0.000000 0.370318 0.644057
0.110990 0.370215 0.642024
0.233689 0.370149 0.639961
0.364128 0.370120 0.637866
0.502315 0.370129 0.635740
0.640297 0.370175 0.633583
0.770609 0.370259 0.631395
0.893244 0.370381 0.629175
1.000000 0.370540 0.626923
0.000858 0.506712 0.637096
0.116291 0.506735 0.634959
0.239474 0.506799 0.632790
0.370417 0.506901 0.630590
0.509094 0.507043 0.628359
0.646858 0.507225 0.626096
0.776934 0.507446 0.623801
0.899315 0.507706 0.621475
1.000000 0.508006 0.619116
0.006128 0.642826 0.629781
0.122059 0.642974 0.627538
0.245758 0.643159 0.625264
0.377234 0.643382 0.622958
0.516390 0.643642 0.620620
0.653905 0.643939 0.618250
0.783715 0.644273 0.615848
0.905812 0.644645 0.613415
1.000000 0.645054 0.610949
0.011841 0.771813 0.622110
0.128300 0.772071 0.619761
0.252545 0.772364 0.617379
0.384583 0.772692 0.614966
0.524198 0.773055 0.612521
0.661433 0.773454 0.610044
0.790947 0.773888 0.607534
0.912730 0.774356 0.604993
1.000000 0.774860 0.602419
0.018000 0.893600 0.614080
0.135017 0.893954 0.611623
0.259838 0.894340 0.609134
0.392470 0.894760 0.606613
0.532512 0.895212 0.604059
0.669438 0.895697 0.601474
0.798625 0.896216 0.598855
0.920064 0.896767 0.596205
1.000000 0.897351 0.593522
0.024610 1.000000 0.605687
0.142216 1.000000 0.603122
0.267643 1.000000 0.600524
0.400899 1.000000 0.597894
0.541328 1.000000 0.595232
0.677914 1.000000 0.592537
0.806744 1.000000 0.589809
0.927808 1.000000 0.587048
1.000000 1.000000 0.584255
0.000000 0.007931 0.789050
0.098235 0.007540 0.787401
0.219694 0.007181 0.785723
0.348844 0.006853 0.784016
0.485693 0.006556 0.782279
0.624061 0.006290 0.780514
0.754888 0.006056 0.778719
0.878089 0.005853 0.776894
0.993656 0.005681 0.775040
0.000000 0.120950 0.783387
0.102199 0.120645 0.781640
0.224058 0.120373 0.779863
0.353624 0.120135 0.778058
0.490907 0.119930 0.776223
0.629190 0.119759 0.774358
0.759868 0.119620 0.772464
0.882902 0.119516 0.770540
0.998284 0.119444 0.768587
0.000000 0.241708 0.777393
0.106621 0.241503 0.775547
0.228909 0.241334 0.773672
0.358921 0.241200 0.771767
0.496668 0.241101 0.769832
0.634816 0.241038 0.767868
0.765315 0.241010 0.765874
0.888153 0.241018 0.763850
1.000000 0.241061 0.761797
0.000000 0.370279 0.771066
0.111504 0.370188 0.769121
0.234250 0.370135 0.767146
0.364739 0.370119 0.765141
0.502976 0.370140 0.763106
0.640937 0.370200 0.761041
0.771227 0.370296 0.758947
0.893837 0.370431 0.756822
1.000000 0.370603 0.754667
0.001370 0.506715 0.764404
0.116852 0.506752 0.762358
0.240086 0.506829 0.760282
0.371081 0.506945 0.758177
0.509808 0.507101 0.756041
0.647547 0.507295 0.753875
0.777598 0.507530 0.751679
0.899952 0.507804 0.749453
1.000000 0.508117 0.747196
0.006685 0.642872 0.757403
0.122667 0.643032 0.755256
0.246421 0.643230 0.753079
0.377952 0.643466 0.750872
0.517155 0.643738 0.748635
0.654643 0.644048 0.746367
0.784424 0.644395 0.744069
0.906492 0.644780 0.741740
1.000000 0.645201 0.739380
0.012442 0.771896 0.750061
0.128956 0.772166 0.747813
0.253258 0.772471 0.745534
0.385355 0.772812 0.743224
0.525014 0.773187 0.740884
0.662220 0.773597 0.738514
0.791702 0.774043 0.736112
0.913452 0.774523 0.733680
1.000000 0.775039 0.731217
0.018646 0.893717 0.742376
0.135722 0.894081 0.740025
0.260602 0.894479 0.737643
0.393296 0.894910 0.735230
0.533379 0.895373 0.732787
0.670273 0.895870 0.730312
0.799425 0.896399 0.727807
0.920827 0.896961 0.725270
1.000000 0.897556 0.722702
0.025303 1.000000 0.734344
0.142970 1.000000 0.731889
0.268460 1.000000 0.729404
0.401780 1.000000 0.726887
0.542245 1.000000 0.724339
0.678796 1.000000 0.721760
0.807588 1.000000 0.719149
0.928612 1.000000 0.716507
1.000000 1.000000 0.713834
0.000000 0.007795 0.909062
0.098614 0.007415 0.907487
0.220113 0.007066 0.905884
0.349303 0.006748 0.904253
0.486194 0.006462 0.902595
0.624556 0.006207 0.900909
0.755370 0.005983 0.899195
0.878555 0.005791 0.897453
0.994104 0.005629 0.895682
0.000000 0.120842 0.903653
0.102625 0.120549 0.901984
0.224525 0.120289 0.900288
0.354135 0.120062 0.898564
0.491463 0.119868 0.896811
0.629735 0.119708 0.895031
0.760397 0.119581 0.893222
0.883412 0.119488 0.891386
0.998774 0.119427 0.889520
0.000000 0.241635 0.897929
0.107093 0.241442 0.896166
0.229425 0.241284 0.894376
0.359485 0.241162 0.892557
0.497280 0.241076 0.890710
0.635412 0.241024 0.888834
0.765891 0.241009 0.886931
0.888707 0.241028 0.884998
1.000000 0.241083 0.883038
0.000000 0.370244 0.891888
0.112023 0.370166 0.890030
0.234817 0.370125 0.888145
0.365355 0.370122 0.886230
0.503642 0.370156 0.884288
0.641582 0.370228 0.882317
0.771849 0.370338 0.880317
0.894435 0.370485 0.878289
1.000000 0.370670 0.876232
0.001887 0.506723 0.885527
0.117417 0.506774 0.883574
0.240703 0.506864 0.881592
0.371751 0.506993 0.879582
0.510526 0.507162 0.877543
0.648241 0.507371 0.875475
0.778266 0.507618 0.873379
0.900593 0.507905 0.871254
1.000000 0.508232 0.869099
0.007246 0.642922 0.878843
0.123281 0.643096 0.876794
0.247088 0.643306 0.874716
0.378675 0.643554 0.872609
0.517926 0.643839 0.870473
0.655386 0.644162 0.868308
0.785139 0.644522 0.866114
0.907175 0.644919 0.863890
1.000000 0.645353 0.861638
0.013048 0.771984 0.871834
0.129617 0.772266 0.869688
0.253976 0.772583 0.867512
0.386132 0.772935 0.865307
0.525836 0.773322 0.863074
0.663011 0.773745 0.860810
0.792461 0.774202 0.858518
0.914178 0.774695 0.856196
1.000000 0.775222 0.853844
0.019298 0.893837 0.864498
0.136431 0.894213 0.862253
0.261372 0.894622 0.859979
0.394128 0.895063 0.857676
0.534252 0.895538 0.855343
0.671112 0.896046 0.852981
0.800229 0.896586 0.850589
0.921595 0.897160 0.848167
1.000000 0.897766 0.845716
0.026000 1.000000 0.856830
0.143728 1.000000 0.854487
0.269282 1.000000 0.852113
0.402667 1.000000 0.849711
0.543168 1.000000 0.847278
0.679682 1.000000 0.844816
0.808436 1.000000 0.842323
0.929421 1.000000 0.839801
1.000000 1.000000 0.837249
0.000000 0.007662 1.000000
0.098999 0.007293 1.000000
0.220536 0.006954 1.000000
0.349768 0.006648 1.000000
0.486701 0.006372 1.000000
0.625056 0.006127 1.000000
0.755856 0.005914 1.000000
0.879026 0.005732 1.000000
0.994557 0.005582 1.000000
0.000000 0.120739 1.000000
0.103055 0.120457 1.000000
0.224998 0.120208 1.000000
0.354652 0.119992 1.000000
0.492026 0.119810 1.000000
0.630286 0.119661 1.000000
0.760930 0.119546 1.000000
0.883927 0.119463 1.000000
0.999268 0.119414 1.000000
0.000000 0.241565 1.000000
0.107570 0.241384 1.000000
0.229947 0.241239 1.000000
0.360054 0.241129 1.000000
0.497897 0.241054 1.000000
0.636012 0.241015 1.000000
0.766472 0.241011 1.000000
0.889266 0.241043 0.999963
1.000000 0.241110 0.998096
0.000000 0.370213 1.000000
0.112546 0.370148 1.000000
0.235388 0.370120 1.000000
0.365977 0.370129 1.000000
0.504313 0.370177 0.999286
0.642232 0.370261 0.997410
0.772476 0.370384 0.995506
0.895037 0.370543 0.993575
1.000000 0.370741 0.991616
0.002408 0.506736 1.000000
0.117988 0.506800 0.998606
0.241325 0.506904 0.996720
0.372426 0.507046 0.994806
0.511250 0.507229 0.992865
0.648941 0.507450 0.990896
0.778940 0.507711 0.988900
0.901238 0.508012 0.986877
1.000000 0.508352 0.984826
0.007811 0.642977 0.994102
0.123899 0.643163 0.992151
0.247760 0.643386 0.990173
0.379403 0.643647 0.988167
0.518701 0.643945 0.986133
0.656134 0.644280 0.984072
0.785858 0.644652 0.981983
0.907863 0.645062 0.979867
1.000000 0.645509 0.977722
0.013658 0.772076 0.987430
0.130283 0.772370 0.985386
0.254700 0.772699 0.983315
0.386915 0.773063 0.981216
0.526662 0.773462 0.979089
0.663808 0.773896 0.976934
0.793225 0.774365 0.974752
0.914908 0.774870 0.972541
1.000000 0.775409 0.970302
0.019954 0.893961 0.980445
0.137146 0.894348 0.978308
0.262147 0.894768 0.976143
0.394965 0.895221 0.973950
0.535129 0.895707 0.971729
0.671956 0.896226 0.969480
0.801037 0.896777 0.967202
0.922366 0.897362 0.964897
1.000000 0.897979 0.962562
0.026702 1.000000 0.973145
0.144492 1.000000 0.970913
0.270109 1.000000 0.968654
0.403560 1.000000 0.966366
0.544096 1.000000 0.964050
0.680574 1.000000 0.961705
0.809289 1.000000 0.959332
0.930233 1.000000 0.956931
1.000000 1.000000 0.954500
