Samples/Looks/luts/fuse_cold_moonlight.cube
# FUSE sample creative LUT, generated for the FUSE samples (MIT, like the rest of FUSE).
# sRGB-encoded display domain, red fastest.
TITLE "FUSE cold moonlight"
LUT_3D_SIZE 5
DOMAIN_MIN 0.0 0.0 0.0
DOMAIN_MAX 1.0 1.0 1.0
0.000000 0.009216 0.028590
0.142286 0.028322 0.050185
0.291841 0.047565 0.071881
0.448663 0.066944 0.093679
0.609370 0.086458 0.115579
0.058536 0.214975 0.101640
0.203858 0.235500 0.123577
0.356448 0.256160 0.145615
0.516233 0.276957 0.167754
0.674638 0.297890 0.189996
0.118340 0.435510 0.175840
0.266697 0.457452 0.198118
0.422322 0.479530 0.220498
0.583268 0.501744 0.242979
0.738638 0.523937 0.265562
0.179412 0.663168 0.251189
0.330804 0.684351 0.273809
0.489464 0.705399 0.296530
0.649036 0.726310 0.319354
0.801370 0.747085 0.342278
0.241751 0.877213 0.327688
0.396178 0.896978 0.350649
0.556969 0.916608 0.373712
0.713536 0.936101 0.396877
0.862835 0.955459 0.420144
0.005852 0.015689 0.190688
0.148444 0.034842 0.213034
0.298305 0.054131 0.235481
0.455434 0.073556 0.258030
0.616016 0.093117 0.280681
0.064516 0.221930 0.266265
0.210144 0.242501 0.288953
0.363040 0.263208 0.311742
0.523058 0.284051 0.334632
0.681156 0.305029 0.357625
0.124448 0.442946 0.342991
0.273111 0.464935 0.366021
0.429043 0.487059 0.389152
0.589965 0.509296 0.412384
0.745028 0.531443 0.435718
0.185647 0.670377 0.420867
0.337346 0.691514 0.444238
0.496313 0.712516 0.467711
0.655605 0.733381 0.491285
0.807633 0.754110 0.514920
0.248115 0.883941 0.499893
0.402848 0.903660 0.523505
0.563716 0.923243 0.547015
0.719977 0.942690 0.570424
0.868970 0.962002 0.593732
0.011716 0.022178 0.358340
0.154615 0.041377 0.381437
0.304783 0.060712 0.404636
0.462218 0.080183 0.427936
0.622650 0.099791 0.451338
0.070509 0.228901 0.436444
0.216443 0.249518 0.459883
0.369646 0.270271 0.483423
0.529869 0.291160 0.507056
0.687662 0.312185 0.530637
0.130569 0.450398 0.515653
0.279538 0.472433 0.539197
0.435776 0.494604 0.562640
0.596649 0.516833 0.585981
0.751406 0.538934 0.609221
0.191896 0.677571 0.594454
0.343901 0.698662 0.617656
0.503171 0.719617 0.640757
0.662161 0.740436 0.663757
0.813882 0.761119 0.686655
0.254491 0.890653 0.672105
0.409531 0.910326 0.694966
0.570451 0.929863 0.717725
0.726405 0.949264 0.740383
0.875092 0.968529 0.762939
0.017594 0.028683 0.531368
0.160800 0.047928 0.554844
0.311273 0.067310 0.578219
0.469015 0.086827 0.601493
0.629270 0.106480 0.624665
0.076514 0.235887 0.609941
0.222755 0.256550 0.633075
0.376264 0.277350 0.656109
0.536668 0.298285 0.679041
0.694154 0.319356 0.701871
0.136702 0.457866 0.687364
0.285978 0.479947 0.710157
0.442522 0.502163 0.732849
0.603320 0.524354 0.755439
0.757770 0.546408 0.777927
0.198158 0.684749 0.763638
0.350469 0.705793 0.786089
0.510021 0.726702 0.808439
0.668704 0.747475 0.830688
0.820119 0.768112 0.852834
0.260880 0.897349 0.838762
0.416227 0.916976 0.860872
0.577172 0.936467 0.882880
0.732820 0.955822 0.904787
0.881200 0.975040 0.926592
0.023485 0.035204 0.702578
0.166996 0.054495 0.725303
0.317777 0.073922 0.747927
0.475825 0.093486 0.770449
0.635878 0.113186 0.792870
0.082533 0.242889 0.778624
0.229080 0.263599 0.801007
0.382895 0.284444 0.823290
0.543455 0.305426 0.845470
0.700634 0.326543 0.867549
0.142849 0.465350 0.853520
0.292431 0.487477 0.875562
0.449282 0.509714 0.897503
0.609978 0.531859 0.919342
0.764122 0.553867 0.941079
0.204432 0.691911 0.927267
0.357050 0.712909 0.948968
0.516857 0.733772 0.970566
0.675234 0.754499 0.992064
0.826343 0.775089 1.000000
0.267283 0.904030 0.999865
0.422936 0.923610 1.000000
0.583881 0.943055 1.000000
0.739223 0.962364 1.000000
0.887296 0.981536 1.000000
