Samples/Looks/luts/fuse_warm_print.cube
# FUSE sample creative LUT, generated for the FUSE samples (MIT, like the rest of FUSE).
# sRGB-encoded display domain, red fastest.
TITLE "FUSE warm print"
LUT_3D_SIZE 5
DOMAIN_MIN 0.0 0.0 0.0
DOMAIN_MAX 1.0 1.0 1.0
0.000000 0.008824 0.027180
0.217287 0.007946 0.024222
0.482799 0.007194 0.021166
0.752101 0.006566 0.018011
0.991052 0.006064 0.014759
0.000000 0.242236 0.016839
0.225912 0.241717 0.013551
0.493113 0.241340 0.010167
0.761960 0.241104 0.006686
1.000000 0.241010 0.003109
0.000000 0.506762 0.005395
0.236492 0.506715 0.001783
0.505608 0.506825 0.000000
0.773684 0.507094 0.000000
1.000000 0.507520 0.000000
0.008902 0.771455 0.000000
0.249056 0.771887 0.000000
0.520193 0.772459 0.000000
0.787240 0.773172 0.000000
1.000000 0.774025 0.000000
0.021217 1.000000 0.000000
0.263639 1.000000 0.000000
0.536816 1.000000 0.000000
0.802591 1.000000 0.000000
1.000000 1.000000 0.000000
0.000000 0.008512 0.266578
0.218069 0.007677 0.263258
0.483741 0.006967 0.259829
0.753011 0.006382 0.256290
0.991903 0.005922 0.252643
0.000000 0.242044 0.254975
0.226891 0.241573 0.251288
0.494275 0.241244 0.247493
0.763060 0.241057 0.243590
1.000000 0.241011 0.239581
0.000000 0.506728 0.242143
0.237670 0.506735 0.238095
0.506986 0.506899 0.233940
0.774970 0.507221 0.229680
1.000000 0.507701 0.225314
0.010064 0.771586 0.228102
0.250436 0.772065 0.223699
0.521780 0.772686 0.219191
0.788709 0.773446 0.214579
1.000000 0.774347 0.209864
0.022560 1.000000 0.212874
0.265225 1.000000 0.208122
0.538605 1.000000 0.203268
0.804239 1.000000 0.198312
1.000000 1.000000 0.193255
0.000000 0.008214 0.530434
0.218872 0.007421 0.526814
0.484706 0.006754 0.523067
0.753940 0.006212 0.519191
0.992771 0.005794 0.515187
0.000000 0.241868 0.517748
0.227890 0.241445 0.513697
0.495460 0.241164 0.509516
0.764178 0.241025 0.505205
1.000000 0.241028 0.500764
0.000350 0.506712 0.503604
0.238868 0.506773 0.499115
0.508386 0.506991 0.494505
0.776275 0.507366 0.489778
1.000000 0.507900 0.484935
0.011244 0.771733 0.488028
0.251837 0.772260 0.483143
0.523387 0.772928 0.478142
0.790196 0.773736 0.473026
1.000000 0.774685 0.467796
0.023922 1.000000 0.471135
0.266832 1.000000 0.465864
0.540415 1.000000 0.460479
0.805904 1.000000 0.454982
1.000000 1.000000 0.449373
0.000000 0.007931 0.789050
0.219694 0.007181 0.785723
0.485693 0.006556 0.782279
0.754888 0.006056 0.778719
0.993656 0.005681 0.775040
0.000000 0.241708 0.777393
0.228909 0.241334 0.773672
0.496668 0.241101 0.769832
0.765315 0.241010 0.765874
1.000000 0.241061 0.761797
0.001370 0.506715 0.764404
0.240086 0.506829 0.760282
0.509808 0.507101 0.756041
0.777598 0.507530 0.751679
1.000000 0.508117 0.747196
0.012442 0.771896 0.750061
0.253258 0.772471 0.745534
0.525014 0.773187 0.740884
0.791702 0.774043 0.736112
1.000000 0.775039 0.731217
0.025303 1.000000 0.734344
0.268460 1.000000 0.729404
0.542245 1.000000 0.724339
0.807588 1.000000 0.719149
1.000000 1.000000 0.713834
0.000000 0.007662 1.000000
0.220536 0.006954 1.000000
0.486701 0.006372 1.000000
0.755856 0.005914 1.000000
0.994557 0.005582 1.000000
0.000000 0.241565 1.000000
0.229947 0.241239 1.000000
0.497897 0.241054 1.000000
0.766472 0.241011 1.000000
1.000000 0.241110 0.998096
0.002408 0.506736 1.000000
0.241325 0.506904 0.996720
0.511250 0.507229 0.992865
0.778940 0.507711 0.988900
1.000000 0.508352 0.984826
0.013658 0.772076 0.987430
0.254700 0.772699 0.983315
0.526662 0.773462 0.979089
0.793225 0.774365 0.974752
1.000000 0.775409 0.970302
0.026702 1.000000 0.973145
0.270109 1.000000 0.968654
0.544096 1.000000 0.964050
0.809289 1.000000 0.959332
1.000000 1.000000 0.954500
