Samples/Looks/luts/fuse_cold_moonlight.cube
# FUSE sample creative LUT, generated for the FUSE samples (MIT, like the rest of FUSE).
# sRGB-encoded display domain, red fastest.
TITLE "FUSE cold moonlight"
LUT_3D_SIZE 9
DOMAIN_MIN 0.0 0.0 0.0
DOMAIN_MAX 1.0 1.0 1.0
0.000000 0.009216 0.028590
0.070235 0.018752 0.039375
0.142286 0.028322 0.050185
0.216155 0.037927 0.061020
0.291841 0.047565 0.071881
0.369343 0.057237 0.082767
0.448663 0.066944 0.093679
0.529558 0.076684 0.104616
0.609370 0.086458 0.115579
0.029110 0.110249 0.064971
0.100103 0.120140 0.075842
0.172914 0.130064 0.086737
0.247541 0.140023 0.097658
0.323986 0.150016 0.108604
0.402247 0.160043 0.119576
0.482326 0.170103 0.130573
0.563110 0.180198 0.141596
0.642162 0.190327 0.152644
0.058536 0.214975 0.101640
0.130289 0.225221 0.112596
0.203858 0.235500 0.123577
0.279244 0.245813 0.134583
0.356448 0.256160 0.145615
0.435468 0.266542 0.156672
0.516233 0.276957 0.167754
0.596344 0.287406 0.178862
0.674638 0.297890 0.189996
0.088280 0.323396 0.138596
0.160791 0.333995 0.149637
0.235119 0.344629 0.160704
0.311264 0.355297 0.171796
0.389226 0.365999 0.182913
0.469006 0.376734 0.194055
0.549909 0.387504 0.205223
0.629261 0.398308 0.216417
0.706796 0.409146 0.227635
0.118340 0.435510 0.175840
0.191610 0.446464 0.186966
0.266697 0.457452 0.198118
0.343601 0.468474 0.209295
0.422322 0.479530 0.220498
0.502858 0.490621 0.231726
0.583268 0.501744 0.242979
0.661862 0.512858 0.254258
0.738638 0.523937 0.265562
0.148718 0.550605 0.213371
0.222746 0.561568 0.224583
0.298592 0.572497 0.235820
0.376255 0.583392 0.247083
0.455735 0.594254 0.258371
0.536659 0.605081 0.269684
0.616311 0.615874 0.281023
0.694145 0.626633 0.292387
0.770163 0.637358 0.303776
0.179412 0.663168 0.251189
0.254199 0.673777 0.262486
0.330804 0.684351 0.273809
0.409225 0.694892 0.285157
0.489464 0.705399 0.296530
0.570143 0.715871 0.307929
0.649036 0.726310 0.319354
0.726112 0.736715 0.330803
0.801370 0.747085 0.342278
0.210423 0.772037 0.289295
0.285969 0.782291 0.300677
0.363333 0.792512 0.312085
0.442513 0.802698 0.323519
0.523360 0.812850 0.334978
0.603311 0.822968 0.346462
0.681445 0.833053 0.357972
0.757762 0.843103 0.369507
0.832261 0.853119 0.381067
0.241751 0.877213 0.327688
0.318056 0.887113 0.339156
0.396178 0.896978 0.350649
0.476117 0.906810 0.362168
0.556969 0.916608 0.373712
0.636161 0.926372 0.385282
0.713536 0.936101 0.396877
0.789094 0.945797 0.408498
0.862835 0.955459 0.420144
0.002924 0.012451 0.108945
0.073235 0.021999 0.119917
0.145364 0.031580 0.130915
0.219309 0.041196 0.141938
0.295071 0.050846 0.152987
0.372651 0.060530 0.164061
0.452047 0.070248 0.175160
0.532960 0.080000 0.186285
0.612695 0.089786 0.197436
0.032066 0.113604 0.145958
0.103136 0.123506 0.157016
0.176023 0.133443 0.168099
0.250727 0.143413 0.179208
0.327248 0.153417 0.190342
0.405587 0.163456 0.201501
0.485742 0.173528 0.212686
0.566479 0.183634 0.223896
0.645455 0.193775 0.235132
0.061525 0.218451 0.183258
0.133353 0.228708 0.194402
0.206999 0.238998 0.205570
0.282462 0.249323 0.216764
0.359742 0.259682 0.227984
0.438839 0.270075 0.239229
0.519647 0.280502 0.250499
0.599681 0.290963 0.261795
0.677899 0.301458 0.273116
0.091300 0.326992 0.220846
0.163888 0.337603 0.232075
0.238292 0.348248 0.243329
0.314514 0.358927 0.254609
0.392553 0.369641 0.265914
0.472409 0.380388 0.277244
0.553291 0.391169 0.288600
0.632567 0.401985 0.299981
0.710025 0.412834 0.311387
0.121393 0.439226 0.258721
0.194739 0.450192 0.270036
0.269903 0.461191 0.281375
0.346883 0.472225 0.292740
0.425681 0.483293 0.304130
0.506284 0.494395 0.315546
0.586618 0.505522 0.326987
0.665135 0.516624 0.338454
0.741835 0.527692 0.349946
0.151802 0.554332 0.296884
0.225907 0.565283 0.308284
0.301829 0.576201 0.319709
0.379569 0.587085 0.331159
0.459125 0.597934 0.342635
0.540054 0.608750 0.354136
0.619629 0.619532 0.365662
0.697387 0.630279 0.377214
0.773327 0.640993 0.388792
0.182528 0.666774 0.335334
0.257392 0.677372 0.346819
0.334073 0.687935 0.358329
0.412571 0.698464 0.369865
0.492887 0.708959 0.381426
0.573506 0.719420 0.393013
0.652322 0.729847 0.404625
0.729321 0.740241 0.416262
0.804503 0.750600 0.427925
0.213571 0.775523 0.374071
0.289194 0.785766 0.385642
0.366634 0.795975 0.397238
0.445891 0.806150 0.408859
0.526767 0.816290 0.420505
0.606641 0.826397 0.432177
0.684699 0.836469 0.443875
0.760939 0.846508 0.455598
0.835362 0.856513 0.467346
0.244931 0.880579 0.413096
0.321313 0.890467 0.424752
0.399512 0.900321 0.436433
0.479527 0.910141 0.448140
0.560344 0.919928 0.459872
0.639460 0.929680 0.471629
0.716758 0.939398 0.483412
0.792240 0.949082 0.495220
0.865904 0.958732 0.507045
0.005852 0.015689 0.190688
0.076240 0.025249 0.201848
0.148444 0.034842 0.213034
0.222466 0.044469 0.224245
0.298305 0.054131 0.235481
0.375961 0.063826 0.246743
0.455434 0.073556 0.258030
0.536358 0.083319 0.269343
0.616016 0.093117 0.280681
0.035025 0.116963 0.228333
0.106172 0.126877 0.239578
0.179136 0.136825 0.250849
0.253916 0.146807 0.262146
0.330514 0.156822 0.273468
0.408929 0.166872 0.284815
0.489161 0.176956 0.296188
0.569845 0.187074 0.307586
0.648745 0.197226 0.319009
0.064516 0.221930 0.266265
0.136422 0.232199 0.277596
0.210144 0.242501 0.288953
0.285684 0.252837 0.300334
0.363040 0.263208 0.311742
0.442214 0.273612 0.323174
0.523058 0.284051 0.334632
0.603015 0.294523 0.346116
0.681156 0.305029 0.357625
0.094324 0.330591 0.304484
0.166988 0.341214 0.315901
0.241469 0.351871 0.327343
0.317767 0.362562 0.338810
0.395883 0.373287 0.350303
0.475815 0.384046 0.361821
0.556670 0.394839 0.373365
0.635869 0.405665 0.384934
0.713251 0.416526 0.396528
0.124448 0.442946 0.342991
0.197871 0.453923 0.354493
0.273111 0.464935 0.366021
0.350168 0.475980 0.377573
0.429043 0.487059 0.389152
0.509708 0.498173 0.400755
0.589965 0.509296 0.412384
0.668405 0.520387 0.424038
0.745028 0.531443 0.435718
0.154889 0.558055 0.381786
0.229071 0.568995 0.393373
0.305070 0.579901 0.404986
0.382886 0.590773 0.416624
0.462519 0.601611 0.428288
0.543445 0.612415 0.439977
0.622943 0.623185 0.451691
0.700625 0.633921 0.463431
0.776489 0.644624 0.475196
0.185647 0.670377 0.420867
0.260588 0.680963 0.432540
0.337346 0.691514 0.444238
0.415921 0.702032 0.455962
0.496313 0.712516 0.467711
0.576865 0.722965 0.479485
0.655605 0.733381 0.491285
0.732527 0.743762 0.503109
0.807633 0.754110 0.514920
0.216723 0.779006 0.460236
0.292422 0.789237 0.471995
0.369939 0.799434 0.483778
0.449272 0.809597 0.495587
0.530171 0.819726 0.507412
0.609969 0.829821 0.519214
0.687950 0.839882 0.530992
0.764113 0.849909 0.542743
0.838460 0.859903 0.554470
0.248115 0.883941 0.499893
0.324573 0.893817 0.511712
0.402848 0.903660 0.523505
0.482941 0.913469 0.535273
0.563716 0.923243 0.547015
0.642755 0.932984 0.558733
0.719977 0.942690 0.570424
0.795382 0.952363 0.582091
0.868970 0.962002 0.593732
0.008783 0.018932 0.273820
0.079247 0.028503 0.285168
0.151528 0.038108 0.296541
0.225627 0.047747 0.307940
0.301542 0.057420 0.319364
0.379275 0.067127 0.330814
0.458825 0.076868 0.342289
0.539753 0.086643 0.353789
0.619335 0.096452 0.365315
0.037988 0.120326 0.312096
0.109211 0.130251 0.323530
0.182252 0.140211 0.334989
0.257109 0.150204 0.346473
0.333783 0.160232 0.357983
0.412275 0.170293 0.369518
0.492583 0.180389 0.381078
0.573208 0.190518 0.392664
0.652031 0.200682 0.404275
0.067511 0.225414 0.350660
0.139493 0.235694 0.362179
0.213292 0.246007 0.373723
0.288908 0.256355 0.385293
0.366341 0.266737 0.396888
0.445591 0.277153 0.408509
0.526465 0.287603 0.420154
0.606346 0.298087 0.431826
0.684410 0.308605 0.443522
0.097350 0.334195 0.389511
0.170091 0.344829 0.401116
0.244649 0.355498 0.412746
0.321024 0.366200 0.424401
0.399216 0.376937 0.436081
0.479225 0.387707 0.447787
0.560045 0.398512 0.459518
0.639168 0.409350 0.471275
0.716473 0.420223 0.483057
0.127507 0.446670 0.428650
0.201006 0.457659 0.440340
0.276323 0.468682 0.452055
0.353457 0.479739 0.463796
0.432408 0.490830 0.475561
0.513128 0.501954 0.487353
0.593309 0.513067 0.499170
0.671672 0.524146 0.510990
0.748219 0.535191 0.522785
0.157980 0.561774 0.468076
0.232238 0.572702 0.479851
0.308314 0.583597 0.491652
0.386207 0.594458 0.503476
0.465916 0.605284 0.515287
0.546833 0.616077 0.527072
0.626255 0.626835 0.538833
0.703860 0.637560 0.550567
0.779647 0.648250 0.562277
0.188770 0.673976 0.507779
0.263787 0.684550 0.519580
0.340622 0.695090 0.531357
0.419273 0.705596 0.543108
0.499742 0.716068 0.554833
0.580222 0.726506 0.566534
0.658885 0.736910 0.578208
0.735730 0.747280 0.589858
0.810759 0.757616 0.601482
0.219877 0.782484 0.547380
0.295653 0.792704 0.559096
0.373247 0.802889 0.570787
0.452657 0.813041 0.582452
0.533572 0.823158 0.594093
0.613293 0.833242 0.605707
0.691197 0.843291 0.617297
0.767284 0.853307 0.628861
0.841554 0.863288 0.640399
0.251301 0.887299 0.586693
0.327836 0.897164 0.598324
0.406188 0.906995 0.609930
0.486357 0.916792 0.621510
0.567085 0.926555 0.633065
0.646048 0.936284 0.644594
0.723193 0.945979 0.656098
0.798521 0.955640 0.667577
0.872032 0.965267 0.679030
0.011716 0.022178 0.358340
0.082257 0.031761 0.369876
0.154615 0.041377 0.381437
0.228791 0.051028 0.393024
0.304783 0.060712 0.404636
0.382592 0.070431 0.416273
0.462218 0.080183 0.427936
0.543145 0.089970 0.439624
0.622650 0.099791 0.451338
0.040954 0.123693 0.397249
0.112254 0.133630 0.408870
0.185371 0.143601 0.420516
0.260305 0.153606 0.432188
0.337056 0.163645 0.443886
0.415624 0.173718 0.455609
0.496009 0.183825 0.467357
0.576568 0.193966 0.479131
0.655314 0.204141 0.490930
0.070509 0.228901 0.436444
0.142567 0.239192 0.448151
0.216443 0.249518 0.459883
0.292136 0.259877 0.471640
0.369646 0.270271 0.483423
0.448972 0.280698 0.495231
0.529869 0.291160 0.507056
0.609674 0.301655 0.518859
0.687662 0.312185 0.530637
0.100380 0.337803 0.475927
0.173198 0.348449 0.487719
0.247832 0.359129 0.499537
0.324284 0.369843 0.511356
0.402552 0.380591 0.523150
0.482638 0.391373 0.534919
0.563418 0.402189 0.546662
0.642463 0.413039 0.558380
0.719692 0.423923 0.570073
0.130569 0.450398 0.515653
0.204145 0.461399 0.527438
0.279538 0.472433 0.539197
0.356749 0.483502 0.550931
0.435776 0.494604 0.562640
0.516545 0.505731 0.574323
0.596649 0.516833 0.585981
0.674936 0.527900 0.597614
0.751406 0.538934 0.609221
0.161074 0.565489 0.555197
0.235409 0.576406 0.566896
0.311561 0.587289 0.578570
0.389530 0.598138 0.590219
0.469317 0.608953 0.601842
0.550218 0.619734 0.613440
0.629563 0.630481 0.625013
0.707092 0.641194 0.636560
0.782803 0.651873 0.648081
0.191896 0.677571 0.594454
0.266990 0.688133 0.606068
0.343901 0.698662 0.617656
0.422629 0.709156 0.629219
0.503171 0.719617 0.640757
0.583575 0.730043 0.652270
0.662161 0.740436 0.663757
0.738930 0.750794 0.675218
0.813882 0.761119 0.686655
0.223035 0.785958 0.633423
0.298888 0.796167 0.644951
0.376558 0.806341 0.656455
0.456044 0.816481 0.667932
0.536970 0.826587 0.679385
0.616614 0.836659 0.690812
0.694442 0.846697 0.702214
0.770452 0.856701 0.713590
0.844645 0.866670 0.724941
0.254491 0.890653 0.672105
0.331103 0.900506 0.683548
0.409531 0.910326 0.694966
0.489777 0.920111 0.706358
0.570451 0.929863 0.717725
0.649337 0.939580 0.729067
0.726405 0.949264 0.740383
0.801657 0.958913 0.751674
0.875092 0.968529 0.762939
0.014654 0.025429 0.444249
0.085271 0.035023 0.455973
0.157706 0.044651 0.467722
0.231958 0.054313 0.479496
0.308026 0.064009 0.491296
0.385912 0.073739 0.503120
0.465615 0.083503 0.514932
0.546533 0.093301 0.526718
0.625962 0.103133 0.538479
0.043923 0.127064 0.483789
0.115300 0.137012 0.495598
0.188493 0.146995 0.507423
0.263504 0.157011 0.519225
0.340331 0.167062 0.531003
0.418976 0.177146 0.542754
0.499438 0.187265 0.554481
0.579924 0.197418 0.566182
0.658594 0.207604 0.577857
0.073510 0.232392 0.523516
0.145645 0.242695 0.535284
0.219597 0.253032 0.547026
0.295367 0.263403 0.558744
0.372953 0.273808 0.570435
0.452357 0.284247 0.582102
0.533271 0.294720 0.593743
0.612999 0.305227 0.605358
0.690909 0.315769 0.616948
0.103413 0.341414 0.563003
0.176307 0.352072 0.574686
0.251019 0.362763 0.586343
0.327547 0.373489 0.597974
0.405892 0.384248 0.609581
0.486054 0.395042 0.621162
0.566787 0.405870 0.632717
0.645756 0.416731 0.644247
0.722908 0.427627 0.655752
0.133634 0.454130 0.602203
0.207287 0.465142 0.613800
0.282757 0.476188 0.625372
0.360044 0.487268 0.636918
0.439148 0.498382 0.648439
0.519959 0.509505 0.659934
0.599986 0.520595 0.671404
0.678196 0.531651 0.682849
0.754590 0.542673 0.694268
0.164171 0.569200 0.641115
0.238583 0.580106 0.652627
0.314811 0.590977 0.664113
0.392857 0.601815 0.675574
0.472720 0.612618 0.687009
0.553600 0.623388 0.698419
0.632869 0.634123 0.709804
0.710320 0.644825 0.721163
0.785955 0.655492 0.732497
0.195025 0.681162 0.679740
0.270196 0.691713 0.691166
0.347183 0.702230 0.702567
0.425988 0.712713 0.713943
0.506598 0.723161 0.725293
0.586924 0.733576 0.736617
0.665434 0.743957 0.747916
0.742127 0.754304 0.759190
0.817002 0.764617 0.770439
0.226196 0.789429 0.718078
0.302126 0.799626 0.729418
0.379872 0.809788 0.740734
0.459435 0.819917 0.752024
0.540364 0.830011 0.763288
0.619932 0.840071 0.774528
0.697683 0.850098 0.785742
0.773617 0.860090 0.796930
0.847733 0.870049 0.808093
0.257684 0.894003 0.756128
0.334372 0.903845 0.767383
0.412878 0.913653 0.778613
0.493200 0.923427 0.789818
0.573813 0.933167 0.800997
0.652622 0.942873 0.812151
0.729614 0.952545 0.823279
0.804790 0.962183 0.834382
0.878148 0.971786 0.845460
0.017594 0.028683 0.531368
0.088288 0.038289 0.543119
0.160800 0.047928 0.554844
0.235128 0.057602 0.566545
0.311273 0.067310 0.578219
0.389236 0.077051 0.589869
0.469015 0.086827 0.601493
0.549918 0.096637 0.613091
0.629270 0.106480 0.624665
0.046896 0.130438 0.570798
0.118349 0.140398 0.582463
0.191619 0.150393 0.594104
0.266706 0.160421 0.605718
0.343610 0.170483 0.617308
0.422331 0.180579 0.628872
0.502867 0.190709 0.640410
0.583278 0.200873 0.651924
0.661871 0.211071 0.663411
0.076514 0.235887 0.609941
0.148726 0.246202 0.621521
0.222755 0.256550 0.633075
0.298601 0.266933 0.644605
0.376264 0.277350 0.656109
0.455744 0.287800 0.667587
0.536668 0.298285 0.679041
0.616320 0.308803 0.690468
0.694154 0.319356 0.701871
0.106450 0.345030 0.648796
0.179420 0.355699 0.660291
0.254208 0.366402 0.671760
0.330813 0.377139 0.683204
0.409235 0.387910 0.694622
0.489474 0.398715 0.706016
0.570153 0.409554 0.717383
0.649045 0.420428 0.728726
0.726121 0.431335 0.740043
0.136702 0.457866 0.687364
0.210432 0.468890 0.698773
0.285978 0.479947 0.710157
0.363342 0.491039 0.721516
0.442522 0.502163 0.732849
0.523369 0.513275 0.744156
0.603320 0.524354 0.755439
0.681454 0.535398 0.766696
0.757770 0.546408 0.777927
0.167271 0.572908 0.725644
0.241760 0.583802 0.736968
0.318065 0.594662 0.748267
0.396187 0.605488 0.759540
0.476127 0.616279 0.770788
0.556979 0.627037 0.782010
0.636170 0.637761 0.793207
0.713545 0.648451 0.804378
0.789103 0.659107 0.815524
0.198158 0.684749 0.763638
0.273405 0.695288 0.774876
0.350469 0.705793 0.786089
0.429350 0.716265 0.797277
0.510021 0.726702 0.808439
0.590271 0.737106 0.819576
0.668704 0.747475 0.830688
0.745320 0.757810 0.841774
0.820119 0.768112 0.852834
0.229361 0.792896 0.801344
0.305367 0.803081 0.812497
0.383189 0.813232 0.823624
0.462830 0.823348 0.834726
0.543755 0.833431 0.845803
0.623246 0.843480 0.856855
0.700921 0.853495 0.867881
0.776778 0.863476 0.878881
0.850818 0.873423 0.889857
0.260880 0.897349 0.838762
0.337645 0.907179 0.849830
0.416227 0.916976 0.860872
0.496626 0.926738 0.871889
0.577172 0.936467 0.882880
0.655905 0.946161 0.893846
0.732820 0.955822 0.904787
0.807919 0.965448 0.915702
0.881200 0.975040 0.926592
0.020538 0.031942 0.617667
0.091309 0.041559 0.629230
0.163896 0.051210 0.640768
0.238301 0.060895 0.652281
0.314523 0.070614 0.663768
0.392562 0.080367 0.675229
0.472418 0.090154 0.686665
0.553300 0.099976 0.698076
0.632576 0.109831 0.709462
0.049871 0.133817 0.656465
0.121401 0.143789 0.667943
0.194748 0.153794 0.679396
0.269911 0.163834 0.690823
0.346892 0.173908 0.702224
0.425690 0.184015 0.713600
0.506294 0.194157 0.724951
0.586628 0.204333 0.736277
0.665144 0.214542 0.747577
0.079522 0.239386 0.694976
0.151810 0.249712 0.706369
0.225916 0.260073 0.717736
0.301838 0.270467 0.729077
0.379578 0.280895 0.740394
0.459135 0.291357 0.751684
0.540063 0.301853 0.762950
0.619638 0.312383 0.774190
0.697396 0.322948 0.785404
0.109489 0.348649 0.733200
0.182537 0.359330 0.744507
0.257401 0.370044 0.755789
0.334082 0.380793 0.767045
0.412581 0.391576 0.778275
0.492896 0.402392 0.789481
0.573515 0.413243 0.800661
0.652331 0.424128 0.811815
0.729330 0.435047 0.822945
0.139774 0.461606 0.771136
0.213580 0.472641 0.782358
0.289203 0.483710 0.793554
0.366643 0.494813 0.804725
0.445900 0.505941 0.815870
0.526777 0.517041 0.826990
0.606651 0.528108 0.838085
0.684708 0.539141 0.849154
0.760948 0.550140 0.860197
0.170375 0.576611 0.808785
0.244940 0.587494 0.819921
0.321322 0.598342 0.831032
0.399521 0.609156 0.842117
0.479537 0.619937 0.853177
0.560354 0.630683 0.864212
0.639469 0.641395 0.875221
0.716767 0.652074 0.886205
0.792249 0.662718 0.897163
0.201293 0.688332 0.846147
0.276617 0.698860 0.857197
0.353758 0.709353 0.868223
0.432715 0.719813 0.879223
0.513441 0.730239 0.890197
0.593614 0.740631 0.901146
0.671971 0.750989 0.912070
0.748510 0.761313 0.922968
0.823233 0.771602 0.933841
0.232528 0.796358 0.883221
0.308611 0.806532 0.894186
0.386510 0.816671 0.905126
0.466227 0.826776 0.916040
0.547143 0.836848 0.926930
0.626558 0.846885 0.937793
0.704155 0.856888 0.948631
0.779936 0.866858 0.959444
0.853900 0.876793 0.970232
0.264080 0.900691 0.920008
0.340921 0.910510 0.930888
0.419580 0.920295 0.941742
0.500055 0.930046 0.952571
0.580528 0.939763 0.963375
0.659184 0.949446 0.974153
0.736023 0.959095 0.984906
0.811045 0.968709 0.995633
0.884250 0.978290 1.000000
0.023485 0.035204 0.702578
0.094332 0.044832 0.713953
0.166996 0.054495 0.725303
0.241478 0.064192 0.736628
0.317777 0.073922 0.747927
0.395892 0.083687 0.759201
0.475825 0.093486 0.770449
0.556679 0.103319 0.781672
0.635878 0.113186 0.792870
0.052850 0.137200 0.740744
0.124456 0.147183 0.752034
0.197880 0.157200 0.763299
0.273120 0.167251 0.774538
0.350177 0.177336 0.785752
0.429052 0.187456 0.796940
0.509717 0.197609 0.808103
0.589974 0.207796 0.819241
0.668414 0.218017 0.830353
0.082533 0.242889 0.778624
0.154898 0.253227 0.789828
0.229080 0.263599 0.801007
0.305079 0.274004 0.812161
0.382895 0.284444 0.823290
0.462529 0.294918 0.834393
0.543455 0.305426 0.845470
0.622953 0.315967 0.856522
0.700634 0.326543 0.867549
0.112532 0.352273 0.816216
0.185656 0.362965 0.827335
0.260597 0.373691 0.838429
0.337355 0.384451 0.849497
0.415930 0.395245 0.860540
0.496322 0.406074 0.871557
0.576875 0.416936 0.882550
0.655614 0.427832 0.893516
0.732536 0.438762 0.904458
0.142849 0.465350 0.853520
0.216731 0.476396 0.864554
0.292431 0.487477 0.875562
0.369948 0.498592 0.886545
0.449282 0.509714 0.897503
0.530181 0.520804 0.908435
0.609978 0.531859 0.919342
0.687959 0.542880 0.930223
0.764122 0.553867 0.941079
0.173482 0.580311 0.890537
0.248123 0.591182 0.901486
0.324582 0.602018 0.912409
0.402857 0.612821 0.923306
0.482950 0.623590 0.934178
0.563726 0.634325 0.945025
0.642765 0.645026 0.955846
0.719986 0.655692 0.966642
0.795391 0.666325 0.977413
0.204432 0.691911 0.927267
0.279832 0.702427 0.938130
0.357050 0.712909 0.948968
0.436084 0.723358 0.959780
0.516857 0.733772 0.970566
0.596954 0.744152 0.981328
0.675234 0.754499 0.992064
0.751697 0.764811 1.000000
0.826343 0.775089 1.000000
0.235699 0.799817 0.963710
0.311858 0.809979 0.974487
0.389834 0.820107 0.985239
0.469628 0.830201 0.995966
0.550528 0.840260 1.000000
0.629866 0.850286 1.000000
0.707387 0.860278 1.000000
0.783091 0.870236 1.000000
0.856978 0.880159 1.000000
0.267283 0.904030 0.999865
0.344201 0.913837 1.000000
0.422936 0.923610 1.000000
0.503485 0.933350 1.000000
0.583881 0.943055 1.000000
0.662460 0.952726 1.000000
0.739223 0.962364 1.000000
0.814168 0.971967 1.000000
0.887296 0.981536 1.000000
